( pcb2gcode 2.4.0 )
( Software-independent Gcode )

G94 ( Millimeters per minute feed rate. )
G21 ( Units == Millimeters. )

G90 ( Absolute coordinates. )
G00 S10000 ( RPM spindle speed. )
G01 F200.00000 ( Feedrate. )


G00 Z10.00000 (Retract to tool change height)
T0
M5      (Spindle stop.)
G04 P1.00000 (Wait for spindle to stop)
(MSG, Change tool bit to mill diameter 0.00000mm)
M6      (Tool change.)
M0      (Temporary machine stop.)
M3 ( Spindle on clockwise. )
G04 P1.00000 (Wait for spindle to get up to speed)
G04 P0 ( dwell for no time -- G64 should not smooth over this point )
G00 Z5.00000 ( retract )

G00 X-53.46770 Y56.12047 ( rapid move to begin. )
G01 F100.00000
( Mill infeed pass 1/1 )
G01 Z-0.22000
G04 P0 ( dwell for no time -- G64 should not smooth over this point )
G01 F200.00000
G01 X-53.46770 Y56.12047
G01 X-53.64997 Y54.95367
G01 X-53.67784 Y54.78151
G01 X-53.69663 Y54.66931
G01 X-53.70674 Y54.60833
G01 X-53.90750 Y53.37922
G01 X-53.91710 Y53.32141
G01 X-53.92620 Y53.26746
G01 X-53.93265 Y53.22954
G01 X-54.10710 Y52.21395
G01 X-54.11558 Y52.16388
G01 X-54.12340 Y52.11689
G01 X-54.14740 Y51.97884
G01 X-54.20052 Y51.68547
G01 X-54.30092 Y50.98382
G01 X-54.31522 Y50.84793
G01 X-54.35345 Y50.36318
G01 X-54.36620 Y49.87842
G01 X-54.36620 Y49.74255
G01 X-54.36331 Y49.51179
G01 X-53.94301 Y49.17918
G01 X-53.88965 Y49.13719
G01 X-53.61451 Y48.92208
G01 X-53.48045 Y48.81543
G01 X-53.47679 Y48.81243
G01 X-53.12434 Y48.54050
G01 X-52.13029 Y48.54050
G01 X-52.12978 Y48.54047
G01 X-51.79615 Y48.54047
G01 X-51.79572 Y48.54047
G01 X-50.97426 Y48.54047
G01 X-50.74307 Y48.54047
G01 X-50.34543 Y48.54047
G01 X-50.16253 Y48.54047
G01 X-49.92217 Y48.54047
G01 X-49.76527 Y48.54047
G01 X-49.59453 Y48.54047
G01 X-49.45166 Y48.54047
G01 X-49.31226 Y48.54047
G01 X-49.17561 Y48.54047
G01 X-49.11048 Y48.54047
G01 X-47.91049 Y48.54047
G01 X-47.84533 Y48.54047
G01 X-47.70868 Y48.54047
G01 X-47.56929 Y48.54047
G01 X-47.42641 Y48.54047
G01 X-47.25567 Y48.54047
G01 X-47.09875 Y48.54047
G01 X-46.87544 Y48.54047
G01 X-46.86261 Y48.53560
G01 X-46.72674 Y48.48342
G01 X-46.49761 Y48.38109
G01 X-46.36172 Y48.31185
G01 X-46.09101 Y48.15498
G01 X-45.95512 Y48.06674
G01 X-45.62474 Y47.82569
G01 X-45.48885 Y47.71566
G01 X-45.07201 Y47.33842
G01 X-44.93612 Y47.20255
G01 X-44.66277 Y46.91317
G01 X-44.38944 Y46.59171
G01 X-44.25357 Y46.42389
G01 X-43.92810 Y46.00047
G01 X-43.56777 Y45.72280
G01 X-43.43186 Y45.61274
G01 X-42.98195 Y45.22697
G01 X-42.53201 Y44.79842
G01 X-42.39612 Y44.66255
G01 X-41.94999 Y44.19598
G01 X-41.99856 Y43.54363
G01 X-42.00730 Y43.46050
G01 X-41.99856 Y43.37734
G01 X-41.95447 Y42.81788
G01 X-41.93978 Y42.25844
G01 X-41.93978 Y42.12255
G01 X-41.95447 Y41.56309
G01 X-41.99856 Y41.00363
G01 X-42.00730 Y40.92047
G01 X-41.99856 Y40.83734
G01 X-41.95447 Y40.27788
G01 X-41.93978 Y39.71842
G01 X-41.93978 Y39.58255
G01 X-41.95447 Y39.02309
G01 X-41.99856 Y38.46363
G01 X-42.00730 Y38.38047
G01 X-41.99856 Y38.46363
G01 X-41.95447 Y39.02309
G01 X-41.93978 Y39.58255
G01 X-41.93978 Y39.71842
G01 X-41.95447 Y40.27788
G01 X-41.99856 Y40.83734
G01 X-42.00730 Y40.92047
G01 X-42.26099 Y40.92047
G01 X-44.89065 Y40.92047
G01 X-44.89116 Y40.92047
G01 X-45.22479 Y40.92047
G01 X-45.22522 Y40.92047
G01 X-46.04709 Y40.92047
G01 X-46.27826 Y40.92047
G01 X-46.67536 Y40.92047
G01 X-46.85821 Y40.92047
G01 X-47.09875 Y40.92047
G01 X-47.25567 Y40.92047
G01 X-47.42641 Y40.92047
G01 X-47.56929 Y40.92047
G01 X-47.70868 Y40.92047
G01 X-47.84533 Y40.92047
G01 X-47.91049 Y40.92047
G01 X-49.11048 Y40.92047
G01 X-49.17561 Y40.92047
G01 X-49.31226 Y40.92047
G01 X-49.45166 Y40.92047
G01 X-49.59453 Y40.92047
G01 X-49.76527 Y40.92047
G01 X-49.92217 Y40.92047
G01 X-50.16253 Y40.92047
G01 X-50.17777 Y40.92047
G01 X-50.30212 Y40.96855
G01 X-50.53357 Y41.07267
G01 X-50.66908 Y41.14216
G01 X-50.94149 Y41.30094
G01 X-51.07695 Y41.38941
G01 X-51.40824 Y41.63238
G01 X-51.54357 Y41.74254
G01 X-51.96143 Y42.12255
G01 X-52.03793 Y42.19946
G01 X-51.97898 Y42.25842
G01 X-51.55607 Y42.64109
G01 X-51.42018 Y42.75113
G01 X-51.08531 Y42.99542
G01 X-50.94942 Y43.08366
G01 X-50.67469 Y43.24284
G01 X-50.53880 Y43.31209
G01 X-50.30560 Y43.41628
G01 X-50.19047 Y43.46047
G01 X-50.16253 Y43.46047
G01 X-49.92217 Y43.46047
G01 X-49.76527 Y43.46047
G01 X-49.59453 Y43.46047
G01 X-49.45166 Y43.46047
G01 X-49.31226 Y43.46047
G01 X-49.17561 Y43.46047
G01 X-49.11048 Y43.46047
G01 X-47.91049 Y43.46047
G01 X-47.84533 Y43.46047
G01 X-47.70868 Y43.46047
G01 X-47.56929 Y43.46047
G01 X-47.42641 Y43.46047
G01 X-47.25567 Y43.46047
G01 X-47.09875 Y43.46047
G01 X-46.85821 Y43.46047
G01 X-46.67536 Y43.46047
G01 X-46.27826 Y43.46047
G01 X-46.04709 Y43.46047
G01 X-45.22522 Y43.46047
G01 X-45.22479 Y43.46047
G01 X-44.89116 Y43.46047
G01 X-44.89065 Y43.46050
G01 X-42.26099 Y43.46050
G01 X-42.00730 Y43.46050
G01 X-41.99856 Y43.54363
G01 X-41.94999 Y44.19598
G01 X-42.39612 Y44.66255
G01 X-42.53201 Y44.79842
G01 X-42.98195 Y45.22697
G01 X-43.43186 Y45.61274
G01 X-43.56777 Y45.72280
G01 X-43.92810 Y46.00047
G01 X-44.89065 Y46.00047
G01 X-44.89116 Y46.00047
G01 X-45.22479 Y46.00047
G01 X-45.22522 Y46.00047
G01 X-46.04709 Y46.00047
G01 X-46.27826 Y46.00047
G01 X-46.67536 Y46.00047
G01 X-46.85821 Y46.00047
G01 X-47.09875 Y46.00047
G01 X-47.25567 Y46.00047
G01 X-47.42641 Y46.00047
G01 X-47.56929 Y46.00047
G01 X-47.70868 Y46.00047
G01 X-47.84533 Y46.00047
G01 X-47.91049 Y46.00047
G01 X-49.11048 Y46.00047
G01 X-49.17561 Y46.00047
G01 X-49.31226 Y46.00047
G01 X-49.45166 Y46.00047
G01 X-49.59453 Y46.00047
G01 X-49.76527 Y46.00047
G01 X-49.92217 Y46.00047
G01 X-50.16253 Y46.00047
G01 X-50.19047 Y46.00047
G01 X-50.30560 Y46.04467
G01 X-50.53880 Y46.14886
G01 X-50.67469 Y46.21810
G01 X-50.94955 Y46.37736
G01 X-51.08543 Y46.46562
G01 X-51.42021 Y46.70984
G01 X-51.55610 Y46.81988
G01 X-51.97898 Y47.20253
G01 X-52.11490 Y47.33844
G01 X-52.39201 Y47.63184
G01 X-52.66915 Y47.95782
G01 X-52.80504 Y48.12566
G01 X-53.12434 Y48.54050
G01 X-53.47679 Y48.81243
G01 X-53.48045 Y48.81543
G01 X-53.61451 Y48.92208
G01 X-53.88965 Y49.13719
G01 X-53.94301 Y49.17918
G01 X-54.36331 Y49.51179
G01 X-54.75454 Y49.01484
G01 X-54.79089 Y48.96585
G01 X-55.06221 Y48.58154
G01 X-55.30620 Y48.19727
G01 X-55.33557 Y48.14825
G01 X-55.69858 Y47.47111
G01 X-55.72175 Y47.42211
G01 X-55.86010 Y47.11017
G01 X-56.34961 Y45.92839
G01 X-56.46978 Y45.65874
G01 X-56.49434 Y45.60743
G01 X-56.65273 Y45.30276
G01 X-56.75032 Y45.12958
G01 X-56.76960 Y45.09504
G01 X-56.77686 Y45.08191
G01 X-56.79381 Y45.05153
G01 X-57.01725 Y44.65417
G01 X-57.02164 Y44.64635
G01 X-57.04135 Y44.61147
G01 X-57.04803 Y44.59961
G01 X-57.26647 Y44.21023
G01 X-57.29126 Y44.16654
G01 X-57.29556 Y44.15910
G01 X-57.32279 Y44.11112
G01 X-57.45560 Y43.87383
G01 X-57.53516 Y43.72628
G01 X-57.55949 Y43.67945
G01 X-57.68100 Y43.43047
G01 X-58.26546 Y42.15562
G01 X-58.68887 Y41.60874
G01 X-58.55237 Y41.00079
G01 X-58.37031 Y40.43236
G01 X-58.27653 Y40.18118
G01 X-57.02769 Y38.93236
G01 X-56.74882 Y38.67938
G01 X-56.46993 Y38.47829
G01 X-56.19104 Y38.32901
G01 X-55.91217 Y38.23160
G01 X-55.84082 Y38.24506
G01 X-55.67227 Y38.28012
G01 X-55.52767 Y38.31837
G01 X-55.51032 Y38.32401
G01 X-55.38652 Y38.35728
G01 X-55.22972 Y38.39058
G01 X-55.11845 Y38.40826
G01 X-54.96165 Y38.42474
G01 X-54.85606 Y38.43028
G01 X-54.69930 Y38.43028
G01 X-54.59371 Y38.42474
G01 X-54.43691 Y38.40826
G01 X-54.32561 Y38.39058
G01 X-54.16882 Y38.35726
G01 X-54.04507 Y38.32401
G01 X-54.02769 Y38.31834
G01 X-53.88312 Y38.28012
G01 X-53.71456 Y38.24506
G01 X-53.55249 Y38.21824
G01 X-53.35053 Y38.29228
G01 X-53.14855 Y38.39223
G01 X-50.20164 Y38.38476
G01 X-50.19047 Y38.38047
G01 X-50.16253 Y38.38047
G01 X-49.92217 Y38.38047
G01 X-49.76527 Y38.38047
G01 X-49.59453 Y38.38047
G01 X-49.45166 Y38.38047
G01 X-49.31226 Y38.38047
G01 X-49.17561 Y38.38047
G01 X-49.11048 Y38.38047
G01 X-47.91049 Y38.38047
G01 X-47.84533 Y38.38047
G01 X-47.70868 Y38.38047
G01 X-47.56929 Y38.38047
G01 X-47.42641 Y38.38047
G01 X-47.25567 Y38.38047
G01 X-47.09875 Y38.38047
G01 X-46.85821 Y38.38047
G01 X-46.67536 Y38.38047
G01 X-46.27826 Y38.38047
G01 X-46.04709 Y38.38047
G01 X-45.22522 Y38.38047
G01 X-45.22479 Y38.38047
G01 X-44.89116 Y38.38047
G01 X-44.89065 Y38.38050
G01 X-42.26099 Y38.38050
G01 X-42.00730 Y38.38047
G01 X-41.99856 Y38.29734
G01 X-41.95447 Y37.73788
G01 X-41.93978 Y37.17842
G01 X-41.93978 Y37.04255
G01 X-41.95447 Y36.48309
G01 X-41.99856 Y35.92363
G01 X-42.00730 Y35.84047
G01 X-41.99856 Y35.75734
G01 X-41.95447 Y35.19788
G01 X-41.93978 Y34.63844
G01 X-41.93978 Y34.50255
G01 X-41.95060 Y34.02231
G01 X-42.02820 Y33.95241
G01 X-42.13275 Y33.85925
G01 X-42.54105 Y33.49892
G01 X-42.66648 Y33.38665
G01 X-42.76137 Y33.30050
G01 X-42.84687 Y33.17599
G01 X-42.95650 Y33.01378
G01 X-43.02924 Y32.90431
G01 X-43.11050 Y32.78368
G01 X-43.57819 Y32.09842
G01 X-43.66907 Y31.96258
G01 X-43.68931 Y31.93174
G01 X-43.75787 Y31.82880
G01 X-44.11956 Y31.29441
G01 X-44.19193 Y31.18524
G01 X-44.20013 Y31.17259
G01 X-44.25334 Y31.09194
G01 X-44.47536 Y30.76052
G01 X-44.54107 Y30.47678
G01 X-44.56894 Y30.36121
G01 X-44.59312 Y30.26497
G01 X-44.62792 Y30.11864
G01 X-44.70686 Y29.76741
G01 X-44.73188 Y29.66116
G01 X-44.75718 Y29.55849
G01 X-44.78870 Y29.42258
G01 X-44.84920 Y29.14465
G01 X-44.87262 Y29.04237
G01 X-44.90186 Y28.92062
G01 X-44.93175 Y28.78806
G01 X-44.98222 Y28.54854
G01 X-45.00503 Y28.44582
G01 X-45.04189 Y28.28786
G01 X-45.05710 Y28.22052
G01 X-45.04270 Y28.15306
G01 X-44.99490 Y27.93622
G01 X-44.97336 Y27.83338
G01 X-44.93742 Y27.65182
G01 X-44.90915 Y27.51890
G01 X-44.86845 Y27.34006
G01 X-44.84626 Y27.23737
G01 X-44.80140 Y27.01849
G01 X-44.77158 Y26.88260
G01 X-44.73338 Y26.71903
G01 X-44.70953 Y26.61209
G01 X-44.64902 Y26.32690
G01 X-44.61613 Y26.18100
G01 X-44.57613 Y26.01336
G01 X-44.54946 Y25.89673
G01 X-44.50203 Y25.68055
G01 X-44.54946 Y25.89673
G01 X-44.57613 Y26.01336
G01 X-44.61613 Y26.18100
G01 X-44.64902 Y26.32690
G01 X-44.70953 Y26.61209
G01 X-44.73338 Y26.71903
G01 X-44.77158 Y26.88260
G01 X-44.80140 Y27.01849
G01 X-44.84626 Y27.23737
G01 X-44.86845 Y27.34006
G01 X-44.90915 Y27.51890
G01 X-44.93742 Y27.65182
G01 X-44.97336 Y27.83338
G01 X-44.99490 Y27.93622
G01 X-45.04270 Y28.15306
G01 X-45.05710 Y28.22052
G01 X-45.22479 Y28.22052
G01 X-45.22522 Y28.22052
G01 X-46.04709 Y28.22052
G01 X-46.27826 Y28.22052
G01 X-46.67536 Y28.22052
G01 X-46.85821 Y28.22052
G01 X-47.09875 Y28.22052
G01 X-47.25567 Y28.22052
G01 X-47.42641 Y28.22052
G01 X-47.56929 Y28.22052
G01 X-47.70868 Y28.22052
G01 X-47.84533 Y28.22052
G01 X-47.91049 Y28.22052
G01 X-49.11048 Y28.22052
G01 X-49.17561 Y28.22052
G01 X-49.31226 Y28.22052
G01 X-49.45166 Y28.22052
G01 X-49.59453 Y28.22052
G01 X-49.76527 Y28.22052
G01 X-49.92217 Y28.22052
G01 X-50.16253 Y28.22052
G01 X-50.34543 Y28.22052
G01 X-50.50482 Y28.22052
G01 X-50.55582 Y28.08451
G01 X-50.56265 Y28.06645
G01 X-50.60144 Y27.96546
G01 X-50.60619 Y27.95316
G01 X-50.68879 Y27.74150
G01 X-50.69339 Y27.72969
G01 X-50.72633 Y27.64382
G01 X-50.74253 Y27.60285
G01 X-50.81396 Y27.42720
G01 X-50.83034 Y27.38573
G01 X-50.85229 Y27.32860
G01 X-50.88094 Y27.25753
G01 X-50.94855 Y27.09744
G01 X-50.98038 Y27.01849
G01 X-50.98980 Y26.99391
G01 X-51.03542 Y26.88260
G01 X-51.10667 Y26.71905
G01 X-51.15353 Y26.60572
G01 X-51.16214 Y26.58372
G01 X-51.22602 Y26.43119
G01 X-51.31294 Y26.23612
G01 X-51.36898 Y26.10498
G01 X-51.41180 Y26.00039
G01 X-51.49107 Y25.81634
G01 X-51.55241 Y25.68052
G01 X-51.49107 Y25.81634
G01 X-51.41180 Y26.00039
G01 X-51.36898 Y26.10498
G01 X-51.31294 Y26.23612
G01 X-51.22602 Y26.43119
G01 X-51.16214 Y26.58372
G01 X-51.15353 Y26.60572
G01 X-51.10667 Y26.71905
G01 X-51.03542 Y26.88260
G01 X-50.98980 Y26.99391
G01 X-50.98038 Y27.01849
G01 X-50.94855 Y27.09744
G01 X-50.88094 Y27.25753
G01 X-50.85229 Y27.32860
G01 X-50.83034 Y27.38573
G01 X-50.81396 Y27.42720
G01 X-50.74253 Y27.60285
G01 X-50.72633 Y27.64382
G01 X-50.69339 Y27.72969
G01 X-50.68879 Y27.74150
G01 X-50.60619 Y27.95316
G01 X-50.60144 Y27.96546
G01 X-50.56265 Y28.06645
G01 X-50.55582 Y28.08451
G01 X-50.50482 Y28.22052
G01 X-50.54350 Y28.31656
G01 X-50.55846 Y28.35461
G01 X-50.58264 Y28.41755
G01 X-50.60982 Y28.48527
G01 X-50.67619 Y28.64364
G01 X-50.70190 Y28.70764
G01 X-50.71470 Y28.74102
G01 X-50.75270 Y28.83381
G01 X-50.80682 Y28.95799
G01 X-50.84540 Y29.05214
G01 X-50.84673 Y29.05565
G01 X-50.89854 Y29.17978
G01 X-50.94632 Y29.28562
G01 X-50.98958 Y29.38732
G01 X-51.00370 Y29.42258
G01 X-51.06242 Y29.55849
G01 X-51.10896 Y29.65885
G01 X-51.15772 Y29.76954
G01 X-51.19765 Y29.86492
G01 X-51.26603 Y30.01839
G01 X-51.31917 Y30.13096
G01 X-51.37687 Y30.25829
G01 X-51.46697 Y30.46540
G01 X-51.55206 Y30.65204
G01 X-51.60375 Y30.76052
G01 X-50.97426 Y30.76052
G01 X-50.74307 Y30.76052
G01 X-50.34543 Y30.76052
G01 X-50.16253 Y30.76052
G01 X-49.92217 Y30.76052
G01 X-49.76527 Y30.76052
G01 X-49.59453 Y30.76052
G01 X-49.45166 Y30.76052
G01 X-49.31226 Y30.76052
G01 X-49.17561 Y30.76052
G01 X-49.11048 Y30.76052
G01 X-47.91049 Y30.76052
G01 X-47.84533 Y30.76052
G01 X-47.70868 Y30.76052
G01 X-47.56929 Y30.76052
G01 X-47.42641 Y30.76052
G01 X-47.25567 Y30.76052
G01 X-47.09875 Y30.76052
G01 X-46.85821 Y30.76052
G01 X-46.67536 Y30.76052
G01 X-46.27826 Y30.76052
G01 X-46.04709 Y30.76052
G01 X-45.22522 Y30.76052
G01 X-45.22479 Y30.76052
G01 X-44.89116 Y30.76052
G01 X-44.89065 Y30.76052
G01 X-44.47536 Y30.76052
G01 X-44.25334 Y31.09194
G01 X-44.20013 Y31.17259
G01 X-44.19193 Y31.18524
G01 X-44.11956 Y31.29441
G01 X-43.75787 Y31.82880
G01 X-43.68931 Y31.93174
G01 X-43.66907 Y31.96258
G01 X-43.57819 Y32.09842
G01 X-43.11050 Y32.78368
G01 X-43.02924 Y32.90431
G01 X-42.95650 Y33.01378
G01 X-42.84687 Y33.17599
G01 X-42.76137 Y33.30050
G01 X-42.66648 Y33.38665
G01 X-42.54105 Y33.49892
G01 X-42.13275 Y33.85925
G01 X-42.02820 Y33.95241
G01 X-41.95060 Y34.02231
G01 X-42.02820 Y33.95241
G01 X-42.13275 Y33.85925
G01 X-42.54105 Y33.49892
G01 X-42.66648 Y33.38665
G01 X-42.76137 Y33.30050
G01 X-44.89065 Y33.30050
G01 X-44.89116 Y33.30047
G01 X-45.22479 Y33.30047
G01 X-45.22522 Y33.30047
G01 X-46.04709 Y33.30047
G01 X-46.27826 Y33.30047
G01 X-46.67536 Y33.30047
G01 X-46.85821 Y33.30047
G01 X-47.09875 Y33.30047
G01 X-47.25567 Y33.30047
G01 X-47.42641 Y33.30047
G01 X-47.56929 Y33.30047
G01 X-47.70868 Y33.30047
G01 X-47.84533 Y33.30047
G01 X-47.91049 Y33.30047
G01 X-49.11048 Y33.30047
G01 X-49.17561 Y33.30047
G01 X-49.31226 Y33.30047
G01 X-49.45166 Y33.30047
G01 X-49.59453 Y33.30047
G01 X-49.76527 Y33.30047
G01 X-49.92217 Y33.30047
G01 X-50.16253 Y33.30047
G01 X-50.34543 Y33.30047
G01 X-50.74307 Y33.30047
G01 X-50.97426 Y33.30047
G01 X-51.79572 Y33.30047
G01 X-51.79615 Y33.30047
G01 X-52.12978 Y33.30047
G01 X-52.13029 Y33.30050
G01 X-53.06023 Y33.30050
G01 X-53.11040 Y33.24401
G01 X-53.32782 Y32.99684
G01 X-53.43239 Y32.88015
G01 X-53.71652 Y32.56882
G01 X-53.78756 Y32.49014
G01 X-53.71388 Y32.40964
G01 X-53.30893 Y32.09842
G01 X-53.13565 Y31.96260
G01 X-53.08774 Y31.92427
G01 X-52.95937 Y31.82318
G01 X-52.41053 Y31.39819
G01 X-52.29275 Y31.30495
G01 X-52.27258 Y31.28861
G01 X-52.18823 Y31.22143
G01 X-51.79189 Y30.91117
G01 X-51.72653 Y30.85915
G01 X-51.67263 Y30.81551
G01 X-51.63529 Y30.78557
G01 X-51.60375 Y30.76052
G01 X-51.55206 Y30.65204
G01 X-51.46697 Y30.46540
G01 X-51.37687 Y30.25829
G01 X-51.31917 Y30.13096
G01 X-51.26603 Y30.01839
G01 X-51.19765 Y29.86492
G01 X-51.15772 Y29.76954
G01 X-51.10896 Y29.65885
G01 X-51.06242 Y29.55849
G01 X-51.00370 Y29.42258
G01 X-50.98958 Y29.38732
G01 X-50.94632 Y29.28562
G01 X-50.89854 Y29.17978
G01 X-50.84673 Y29.05565
G01 X-50.84540 Y29.05214
G01 X-50.80682 Y28.95799
G01 X-50.75270 Y28.83381
G01 X-50.71470 Y28.74102
G01 X-50.70190 Y28.70764
G01 X-50.67619 Y28.64364
G01 X-50.60982 Y28.48527
G01 X-50.58264 Y28.41755
G01 X-50.55846 Y28.35461
G01 X-50.54350 Y28.31656
G01 X-50.50482 Y28.22052
G01 X-50.55582 Y28.08451
G01 X-50.56265 Y28.06645
G01 X-50.60144 Y27.96546
G01 X-50.60619 Y27.95316
G01 X-50.68879 Y27.74150
G01 X-50.69339 Y27.72969
G01 X-50.72633 Y27.64382
G01 X-50.74253 Y27.60285
G01 X-50.81396 Y27.42720
G01 X-50.83034 Y27.38573
G01 X-50.85229 Y27.32860
G01 X-50.88094 Y27.25753
G01 X-50.94855 Y27.09744
G01 X-50.98038 Y27.01849
G01 X-50.98980 Y26.99391
G01 X-51.03542 Y26.88260
G01 X-51.10667 Y26.71905
G01 X-51.15353 Y26.60572
G01 X-51.16214 Y26.58372
G01 X-51.22602 Y26.43119
G01 X-51.31294 Y26.23612
G01 X-51.36898 Y26.10498
G01 X-51.41180 Y26.00039
G01 X-51.49107 Y25.81634
G01 X-51.55241 Y25.68052
G01 X-51.63855 Y25.61077
G01 X-51.72973 Y25.53694
G01 X-51.75737 Y25.51471
G01 X-52.18823 Y25.17087
G01 X-52.22396 Y25.14212
G01 X-52.29275 Y25.08644
G01 X-52.36057 Y25.03224
G01 X-52.95886 Y24.56031
G01 X-53.06122 Y24.47847
G01 X-53.08769 Y24.45706
G01 X-53.23153 Y24.34258
G01 X-53.71507 Y23.96435
G01 X-54.20059 Y23.39747
G01 X-54.33648 Y23.22965
G01 X-54.40806 Y23.14055
G01 X-54.33648 Y23.22965
G01 X-54.20059 Y23.39747
G01 X-53.71507 Y23.96435
G01 X-53.23153 Y24.34258
G01 X-53.08769 Y24.45706
G01 X-53.06122 Y24.47847
G01 X-52.95886 Y24.56031
G01 X-52.36057 Y25.03224
G01 X-52.29275 Y25.08644
G01 X-52.22396 Y25.14212
G01 X-52.18823 Y25.17087
G01 X-51.75737 Y25.51471
G01 X-51.72973 Y25.53694
G01 X-51.63855 Y25.61077
G01 X-51.55241 Y25.68052
G01 X-50.97426 Y25.68052
G01 X-50.74307 Y25.68052
G01 X-50.34543 Y25.68052
G01 X-50.16253 Y25.68052
G01 X-49.92217 Y25.68052
G01 X-49.76527 Y25.68052
G01 X-49.59453 Y25.68052
G01 X-49.45166 Y25.68052
G01 X-49.31226 Y25.68052
G01 X-49.17561 Y25.68052
G01 X-49.11048 Y25.68052
G01 X-47.91049 Y25.68052
G01 X-47.84533 Y25.68052
G01 X-47.70868 Y25.68052
G01 X-47.56929 Y25.68052
G01 X-47.42641 Y25.68052
G01 X-47.25567 Y25.68052
G01 X-47.09875 Y25.68052
G01 X-46.85821 Y25.68052
G01 X-46.67536 Y25.68052
G01 X-46.27826 Y25.68052
G01 X-46.04709 Y25.68052
G01 X-45.22522 Y25.68052
G01 X-45.22479 Y25.68052
G01 X-44.89116 Y25.68052
G01 X-44.89065 Y25.68055
G01 X-44.50203 Y25.68055
G01 X-44.24877 Y25.29541
G01 X-44.22738 Y25.26269
G01 X-44.18771 Y25.20161
G01 X-44.14770 Y25.14070
G01 X-43.75736 Y24.55340
G01 X-43.75720 Y24.55317
G01 X-43.72581 Y24.47847
G01 X-43.68522 Y24.38053
G01 X-43.29043 Y24.38053
G01 X-42.86422 Y24.37031
G01 X-42.79818 Y24.36706
G01 X-42.10740 Y24.30046
G01 X-42.04702 Y24.29152
G01 X-41.50824 Y24.18528
G01 X-41.45284 Y24.17138
G01 X-41.01868 Y24.04029
G01 X-40.96765 Y24.02203
G01 X-40.78048 Y23.94989
G01 X-39.31012 Y23.34085
G01 X-39.19280 Y23.29556
G01 X-39.14380 Y23.27804
G01 X-38.92353 Y23.21101
G01 X-38.87451 Y23.19874
G01 X-38.66712 Y23.15736
G01 X-38.61812 Y23.15010
G01 X-38.41818 Y23.13036
G01 X-38.36918 Y23.12795
G01 X-38.27047 Y23.12554
G01 X-27.32473 Y23.12554
G01 X-27.29826 Y23.13570
G01 X-27.28556 Y23.14052
G01 X-27.06224 Y23.14052
G01 X-26.90532 Y23.14052
G01 X-26.73458 Y23.14052
G01 X-26.59171 Y23.14052
G01 X-26.45231 Y23.14052
G01 X-26.31566 Y23.14052
G01 X-26.25051 Y23.14052
G01 X-25.05051 Y23.14052
G01 X-24.98539 Y23.14052
G01 X-24.84873 Y23.14052
G01 X-24.70934 Y23.14052
G01 X-24.56646 Y23.14052
G01 X-24.39572 Y23.14052
G01 X-24.23880 Y23.14052
G01 X-24.01549 Y23.14052
G01 X-24.00266 Y23.13565
G01 X-23.86682 Y23.08347
G01 X-23.63766 Y22.98114
G01 X-23.50177 Y22.91190
G01 X-23.23106 Y22.75503
G01 X-23.09517 Y22.66679
G01 X-22.76479 Y22.42574
G01 X-22.62890 Y22.31571
G01 X-22.21206 Y21.93849
G01 X-22.07615 Y21.80258
G01 X-21.80282 Y21.51322
G01 X-21.52949 Y21.19176
G01 X-21.39362 Y21.02394
G01 X-21.06815 Y20.60052
G01 X-22.03071 Y20.60052
G01 X-22.03121 Y20.60052
G01 X-22.36484 Y20.60052
G01 X-22.36527 Y20.60052
G01 X-23.18714 Y20.60052
G01 X-23.41831 Y20.60052
G01 X-23.81544 Y20.60052
G01 X-23.99827 Y20.60052
G01 X-24.23880 Y20.60052
G01 X-24.39572 Y20.60052
G01 X-24.56646 Y20.60052
G01 X-24.70934 Y20.60052
G01 X-24.84873 Y20.60052
G01 X-24.98539 Y20.60052
G01 X-25.05051 Y20.60052
G01 X-26.25051 Y20.60052
G01 X-26.31566 Y20.60052
G01 X-26.45231 Y20.60052
G01 X-26.59171 Y20.60052
G01 X-26.73458 Y20.60052
G01 X-26.90532 Y20.60052
G01 X-27.06224 Y20.60052
G01 X-27.30260 Y20.60052
G01 X-27.33047 Y20.60052
G01 X-28.08053 Y20.60055
G01 X-28.18058 Y20.59808
G01 X-28.22963 Y20.59570
G01 X-28.43303 Y20.57561
G01 X-28.48205 Y20.56832
G01 X-28.69213 Y20.52641
G01 X-28.74116 Y20.51411
G01 X-28.96521 Y20.44591
G01 X-29.01426 Y20.42836
G01 X-29.13272 Y20.38259
G01 X-29.17512 Y20.36504
G01 X-30.97112 Y19.62110
G01 X-31.17133 Y19.53230
G01 X-31.22032 Y19.50914
G01 X-31.65662 Y19.27525
G01 X-31.70564 Y19.24586
G01 X-32.20305 Y18.91236
G01 X-32.25205 Y18.87604
G01 X-32.73505 Y18.48488
G01 X-32.25205 Y18.87604
G01 X-32.20305 Y18.91236
G01 X-31.70564 Y19.24586
G01 X-31.65662 Y19.27525
G01 X-31.22032 Y19.50914
G01 X-31.17133 Y19.53230
G01 X-30.97112 Y19.62110
G01 X-29.17512 Y20.36504
G01 X-29.13272 Y20.38259
G01 X-29.01426 Y20.42836
G01 X-28.96521 Y20.44591
G01 X-28.74116 Y20.51411
G01 X-28.69213 Y20.52641
G01 X-28.48205 Y20.56832
G01 X-28.43303 Y20.57561
G01 X-28.22963 Y20.59570
G01 X-28.18058 Y20.59808
G01 X-28.08053 Y20.60055
G01 X-27.33047 Y20.60052
G01 X-27.30260 Y20.60052
G01 X-27.06224 Y20.60052
G01 X-26.90532 Y20.60052
G01 X-26.73458 Y20.60052
G01 X-26.59171 Y20.60052
G01 X-26.45231 Y20.60052
G01 X-26.31566 Y20.60052
G01 X-26.25051 Y20.60052
G01 X-25.05051 Y20.60052
G01 X-24.98539 Y20.60052
G01 X-24.84873 Y20.60052
G01 X-24.70934 Y20.60052
G01 X-24.56646 Y20.60052
G01 X-24.39572 Y20.60052
G01 X-24.23880 Y20.60052
G01 X-23.99827 Y20.60052
G01 X-23.81544 Y20.60052
G01 X-23.41831 Y20.60052
G01 X-23.18714 Y20.60052
G01 X-22.36527 Y20.60052
G01 X-22.36484 Y20.60052
G01 X-22.03121 Y20.60052
G01 X-22.03071 Y20.60052
G01 X-21.06815 Y20.60052
G01 X-20.70782 Y20.32285
G01 X-20.57193 Y20.21279
G01 X-20.04750 Y19.75902
G01 X-20.22913 Y19.39847
G01 X-20.29622 Y19.26260
G01 X-20.32992 Y19.19288
G01 X-20.35352 Y19.14439
G01 X-20.49878 Y18.84848
G01 X-21.14122 Y18.64983
G01 X-21.29761 Y18.60248
G01 X-21.57069 Y18.52158
G01 X-22.07079 Y18.38582
G01 X-22.53563 Y18.28531
G01 X-22.77155 Y18.24157
G01 X-22.83004 Y18.23101
G01 X-23.10081 Y18.18338
G01 X-23.17437 Y18.17101
G01 X-23.30947 Y18.14940
G01 X-23.49380 Y18.11536
G01 X-23.55529 Y18.10241
G01 X-23.61757 Y18.08994
G01 X-23.77198 Y18.06052
G01 X-23.81544 Y18.06052
G01 X-23.99827 Y18.06052
G01 X-24.23880 Y18.06052
G01 X-24.39572 Y18.06052
G01 X-24.56646 Y18.06052
G01 X-24.70934 Y18.06052
G01 X-24.84873 Y18.06052
G01 X-24.98539 Y18.06052
G01 X-25.05051 Y18.06052
G01 X-26.25051 Y18.06052
G01 X-26.31566 Y18.06052
G01 X-26.45231 Y18.06052
G01 X-26.59171 Y18.06052
G01 X-26.73458 Y18.06052
G01 X-26.90532 Y18.06052
G01 X-27.06224 Y18.06052
G01 X-27.30260 Y18.06052
G01 X-27.33054 Y18.06052
G01 X-27.44568 Y18.01633
G01 X-27.52315 Y17.98498
G01 X-27.62539 Y17.87330
G01 X-27.71388 Y17.76964
G01 X-27.85861 Y17.58089
G01 X-27.93689 Y17.46703
G01 X-27.95510 Y17.44010
G01 X-27.98711 Y17.22928
G01 X-28.00141 Y17.09337
G01 X-28.01375 Y16.85847
G01 X-28.01375 Y16.72258
G01 X-28.00141 Y16.48770
G01 X-27.98711 Y16.35179
G01 X-27.94852 Y16.10896
G01 X-27.91964 Y15.97307
G01 X-27.84969 Y15.71275
G01 X-27.80555 Y15.57686
G01 X-27.78660 Y15.52052
G01 X-27.80555 Y15.46419
G01 X-27.84969 Y15.32830
G01 X-27.91962 Y15.06807
G01 X-27.94852 Y14.93221
G01 X-27.98711 Y14.68928
G01 X-28.00141 Y14.55337
G01 X-28.01375 Y14.31847
G01 X-28.01375 Y14.18260
G01 X-28.00141 Y13.94770
G01 X-27.98711 Y13.81179
G01 X-27.94852 Y13.56896
G01 X-27.91964 Y13.43307
G01 X-27.84969 Y13.17275
G01 X-27.80555 Y13.03686
G01 X-27.69447 Y12.74839
G01 X-27.63397 Y12.61250
G01 X-27.46526 Y12.28251
G01 X-27.38680 Y12.14662
G01 X-27.13232 Y11.75629
G01 X-27.03359 Y11.62040
G01 X-26.86585 Y11.40153
G01 X-27.03359 Y11.62040
G01 X-27.13232 Y11.75629
G01 X-27.38680 Y12.14662
G01 X-27.46526 Y12.28251
G01 X-27.63397 Y12.61250
G01 X-27.69447 Y12.74839
G01 X-27.80555 Y13.03686
G01 X-27.84969 Y13.17275
G01 X-27.91964 Y13.43307
G01 X-27.94852 Y13.56896
G01 X-27.98711 Y13.81179
G01 X-28.00141 Y13.94770
G01 X-28.01375 Y14.18260
G01 X-28.01375 Y14.31847
G01 X-28.00141 Y14.55337
G01 X-27.98711 Y14.68928
G01 X-27.94852 Y14.93221
G01 X-27.91962 Y15.06807
G01 X-27.84969 Y15.32830
G01 X-27.80555 Y15.46419
G01 X-27.78660 Y15.52052
G01 X-27.48548 Y15.52052
G01 X-27.30260 Y15.52052
G01 X-27.06224 Y15.52052
G01 X-26.90532 Y15.52052
G01 X-26.73458 Y15.52052
G01 X-26.59171 Y15.52052
G01 X-26.45231 Y15.52052
G01 X-26.31566 Y15.52052
G01 X-26.25051 Y15.52052
G01 X-25.05051 Y15.52052
G01 X-24.98539 Y15.52052
G01 X-24.84873 Y15.52052
G01 X-24.70934 Y15.52052
G01 X-24.61234 Y15.52052
G01 X-24.58064 Y15.47689
G01 X-24.49593 Y15.34696
G01 X-24.41747 Y15.21107
G01 X-24.36659 Y15.11156
G01 X-24.30611 Y14.97569
G01 X-24.27594 Y14.89733
G01 X-24.23177 Y14.76144
G01 X-24.21450 Y14.69713
G01 X-24.18562 Y14.56127
G01 X-24.17680 Y14.50569
G01 X-24.16250 Y14.36983
G01 X-24.15983 Y14.31847
G01 X-24.15983 Y14.18260
G01 X-24.16250 Y14.13124
G01 X-24.17680 Y13.99538
G01 X-24.18562 Y13.93983
G01 X-24.21450 Y13.80394
G01 X-24.23177 Y13.73960
G01 X-24.27594 Y13.60371
G01 X-24.30611 Y13.52535
G01 X-24.36659 Y13.38949
G01 X-24.41747 Y13.28997
G01 X-24.49593 Y13.15408
G01 X-24.58064 Y13.02416
G01 X-24.67937 Y12.88827
G01 X-24.82079 Y12.71441
G01 X-24.94315 Y12.57852
G01 X-25.05051 Y12.46551
G01 X-25.64896 Y11.86709
G01 X-26.25051 Y11.61791
G01 X-26.46755 Y11.53468
G01 X-26.60949 Y11.48441
G01 X-26.86585 Y11.40153
G01 X-28.00418 Y8.65335
G01 X-28.04598 Y8.54505
G01 X-28.06351 Y8.49605
G01 X-28.12528 Y8.29300
G01 X-28.13758 Y8.24398
G01 X-28.17568 Y8.05300
G01 X-28.18294 Y8.00398
G01 X-28.20110 Y7.81990
G01 X-28.20351 Y7.77088
G01 X-28.20572 Y7.68013
G01 X-28.20572 Y6.43413
G01 X-28.23062 Y6.37248
G01 X-28.29429 Y6.20657
G01 X-28.30092 Y6.18902
G01 X-28.30092 Y6.00954
G01 X-28.30092 Y5.81800
G01 X-28.30092 Y5.68046
G01 X-28.30092 Y5.50606
G01 X-28.30092 Y5.39753
G01 X-28.30092 Y5.23070
G01 X-28.30092 Y5.18059
G01 X-28.30092 Y4.57759
G01 X-28.30092 Y4.52750
G01 X-28.30092 Y4.36068
G01 X-28.30092 Y4.25214
G01 X-28.30092 Y4.07775
G01 X-28.30092 Y3.94018
G01 X-28.30092 Y3.76002
G01 X-28.29109 Y3.75433
G01 X-28.14949 Y3.68194
G01 X-27.98360 Y3.60808
G01 X-27.86973 Y3.56423
G01 X-27.70387 Y3.51034
G01 X-27.60829 Y3.48466
G01 X-27.44240 Y3.44940
G01 X-27.35838 Y3.43607
G01 X-27.19249 Y3.41862
G01 X-27.11385 Y3.41448
G01 X-26.94797 Y3.41448
G01 X-26.86935 Y3.41862
G01 X-26.70347 Y3.43607
G01 X-26.61942 Y3.44940
G01 X-26.45356 Y3.48466
G01 X-26.35805 Y3.51034
G01 X-26.19214 Y3.56423
G01 X-26.07820 Y3.60810
G01 X-25.91231 Y3.68196
G01 X-25.77088 Y3.75428
G01 X-25.76092 Y3.76002
G01 X-25.76092 Y3.94018
G01 X-25.76092 Y4.07775
G01 X-25.76092 Y4.25214
G01 X-25.76092 Y4.36068
G01 X-25.76092 Y4.52750
G01 X-25.76092 Y4.57759
G01 X-25.76092 Y5.18059
G01 X-25.76092 Y5.23070
G01 X-25.76092 Y5.39753
G01 X-25.76092 Y5.50606
G01 X-25.76092 Y5.68046
G01 X-25.76092 Y5.81800
G01 X-25.76092 Y6.00954
G01 X-25.76092 Y6.21254
G01 X-25.76092 Y6.43583
G01 X-25.76092 Y6.47332
G01 X-25.67312 Y6.66649
G01 X-25.58861 Y6.83238
G01 X-25.47431 Y7.03535
G01 X-25.42336 Y7.07124
G01 X-25.28429 Y7.16682
G01 X-25.03090 Y7.32186
G01 X-24.87886 Y7.40441
G01 X-24.57388 Y7.54952
G01 X-24.40797 Y7.61823
G01 X-24.02913 Y7.75183
G01 X-23.84818 Y7.80543
G01 X-23.36151 Y7.92140
G01 X-23.16362 Y7.95808
G01 X-22.95242 Y7.99313
G01 X-22.19631 Y8.30631
G01 X-21.82436 Y9.20433
G01 X-21.73698 Y9.43067
G01 X-21.71943 Y9.47967
G01 X-21.58925 Y9.90766
G01 X-21.57696 Y9.95668
G01 X-21.49616 Y10.36183
G01 X-21.48887 Y10.41083
G01 X-21.45019 Y10.80280
G01 X-21.44778 Y10.85183
G01 X-21.44303 Y11.04550
G01 X-21.44303 Y14.22050
G01 X-21.43828 Y14.41412
G01 X-21.43586 Y14.46315
G01 X-21.39718 Y14.85522
G01 X-21.38989 Y14.90422
G01 X-21.30909 Y15.30937
G01 X-21.29680 Y15.35839
G01 X-21.16662 Y15.78638
G01 X-21.14907 Y15.83538
G01 X-21.06172 Y16.06170
G01 X-21.03528 Y16.12553
G01 X-20.94145 Y16.36893
G01 X-20.92316 Y16.41999
G01 X-20.75303 Y16.98346
G01 X-20.73914 Y17.03886
G01 X-20.60170 Y17.73581
G01 X-20.59276 Y17.79619
G01 X-20.53978 Y18.23144
G01 X-20.50688 Y18.68679
G01 X-20.50455 Y18.73451
G01 X-20.50363 Y18.75285
G01 X-20.49878 Y18.84848
G01 X-20.35352 Y19.14439
G01 X-20.32992 Y19.19288
G01 X-20.29622 Y19.26260
G01 X-20.22913 Y19.39847
G01 X-20.04750 Y19.75902
G01 X-19.85553 Y19.81142
G01 X-19.77089 Y19.83352
G01 X-19.72218 Y19.84637
G01 X-19.44118 Y19.92145
G01 X-19.39319 Y19.93413
G01 X-18.91253 Y20.05955
G01 X-18.86513 Y20.07205
G01 X-18.59594 Y20.14401
G01 X-18.54854 Y20.15651
G01 X-18.06767 Y20.28201
G01 X-18.01966 Y20.29468
G01 X-17.73889 Y20.36969
G01 X-17.69018 Y20.38254
G01 X-17.60552 Y20.40464
G01 X-16.82233 Y20.64700
G01 X-16.77334 Y20.66456
G01 X-16.31609 Y20.84109
G01 X-15.48467 Y21.18546
G01 X-15.43956 Y21.31289
G01 X-15.24179 Y21.82948
G01 X-15.02206 Y22.32412
G01 X-14.95043 Y22.47426
G01 X-14.74431 Y22.88104
G01 X-14.72823 Y22.89412
G01 X-14.08066 Y23.18924
G01 X-13.87281 Y23.28655
G01 X-13.03479 Y23.68970
G01 X-12.97817 Y23.71723
G01 X-12.57218 Y24.09610
G01 X-11.89885 Y24.76942
G01 X-11.63103 Y25.05840
G01 X-11.40553 Y25.34738
G01 X-11.22234 Y25.63638
G01 X-11.08148 Y25.92535
G01 X-10.80258 Y26.59871
G01 X-10.70624 Y26.90879
G01 X-10.67416 Y27.21885
G01 X-10.67416 Y27.89215
G01 X-10.70624 Y28.20223
G01 X-10.80258 Y28.51232
G01 X-10.95552 Y28.88158
G01 X-10.95552 Y33.84942
G01 X-10.80258 Y34.21868
G01 X-10.70624 Y34.52877
G01 X-10.67416 Y34.83885
G01 X-10.67416 Y35.51215
G01 X-10.70624 Y35.82221
G01 X-10.80258 Y36.13229
G01 X-11.08148 Y36.80565
G01 X-11.22234 Y37.09462
G01 X-11.40553 Y37.38362
G01 X-11.63103 Y37.67260
G01 X-11.89885 Y37.96158
G01 X-12.55498 Y38.61768
G01 X-12.57215 Y38.60259
G01 X-12.89623 Y38.31809
G01 X-12.93606 Y38.28278
G01 X-13.26857 Y37.98522
G01 X-13.30426 Y37.95291
G01 X-13.58495 Y37.69632
G01 X-13.61835 Y37.66544
G01 X-13.74779 Y37.54441
G01 X-13.93786 Y37.35396
G01 X-14.39701 Y36.86087
G01 X-14.64743 Y36.56275
G01 X-14.86778 Y36.23859
G01 X-15.05808 Y35.88840
G01 X-15.21832 Y35.51215
G01 X-15.46950 Y34.83885
G01 X-15.60832 Y34.41302
G01 X-15.71685 Y33.96095
G01 X-15.79508 Y33.48264
G01 X-15.84306 Y32.97812
G01 X-16.33620 Y31.65620
G01 X-16.68053 Y31.49898
G01 X-17.02731 Y31.33035
G01 X-17.07417 Y31.30609
G01 X-17.68517 Y30.95163
G01 X-17.72795 Y30.92387
G01 X-18.25190 Y30.54653
G01 X-18.29083 Y30.51541
G01 X-18.74786 Y30.11247
G01 X-18.78309 Y30.07818
G01 X-18.99078 Y29.86578
G01 X-21.16180 Y27.53419
G01 X-21.34587 Y27.45014
G01 X-21.64140 Y27.32454
G01 X-21.69484 Y27.30353
G01 X-21.77376 Y27.27315
G01 X-22.01613 Y27.01847
G01 X-22.15204 Y26.88260
G01 X-22.58031 Y26.49505
G01 X-22.71620 Y26.38499
G01 X-23.05608 Y26.13701
G01 X-23.19197 Y26.04875
G01 X-23.47122 Y25.88695
G01 X-23.60711 Y25.81771
G01 X-23.84376 Y25.71199
G01 X-23.92575 Y25.68052
G01 X-23.99827 Y25.68052
G01 X-24.23880 Y25.68052
G01 X-24.39572 Y25.68052
G01 X-24.56646 Y25.68052
G01 X-24.70934 Y25.68052
G01 X-24.84873 Y25.68052
G01 X-24.98539 Y25.68052
G01 X-25.05051 Y25.68052
G01 X-26.25051 Y25.68052
G01 X-26.31566 Y25.68052
G01 X-26.45231 Y25.68052
G01 X-26.59171 Y25.68052
G01 X-26.73458 Y25.68052
G01 X-26.90532 Y25.68052
G01 X-27.06224 Y25.68052
G01 X-27.30260 Y25.68052
G01 X-27.37535 Y25.68052
G01 X-27.45719 Y25.71194
G01 X-27.69414 Y25.81778
G01 X-27.83003 Y25.88702
G01 X-28.10908 Y26.04875
G01 X-28.24497 Y26.13701
G01 X-28.58454 Y26.38474
G01 X-28.72043 Y26.49477
G01 X-29.14903 Y26.88260
G01 X-29.28492 Y27.01847
G01 X-29.56559 Y27.31562
G01 X-29.84623 Y27.64575
G01 X-29.98212 Y27.81359
G01 X-30.29581 Y28.22052
G01 X-30.64113 Y28.48732
G01 X-30.77702 Y28.59736
G01 X-31.42538 Y29.16616
G01 X-31.45759 Y29.42258
G01 X-31.47570 Y29.55849
G01 X-31.49789 Y29.71633
G01 X-31.50404 Y29.76065
G01 X-31.45527 Y30.52799
G01 X-31.44097 Y30.66388
G01 X-31.43031 Y30.76052
G01 X-29.27034 Y30.76052
G01 X-29.26983 Y30.76052
G01 X-28.93620 Y30.76052
G01 X-28.93577 Y30.76052
G01 X-28.11431 Y30.76052
G01 X-27.88312 Y30.76052
G01 X-27.48548 Y30.76052
G01 X-27.30260 Y30.76052
G01 X-27.06224 Y30.76052
G01 X-26.90532 Y30.76052
G01 X-26.73458 Y30.76052
G01 X-26.59171 Y30.76052
G01 X-26.45231 Y30.76052
G01 X-26.31566 Y30.76052
G01 X-26.25051 Y30.76052
G01 X-25.05051 Y30.76052
G01 X-24.98539 Y30.76052
G01 X-24.84873 Y30.76052
G01 X-24.70934 Y30.76052
G01 X-24.56646 Y30.76052
G01 X-24.39572 Y30.76052
G01 X-24.23880 Y30.76052
G01 X-24.10492 Y30.76052
G01 X-24.04818 Y30.81595
G01 X-23.95282 Y30.91310
G01 X-23.82595 Y31.05674
G01 X-23.74140 Y31.16324
G01 X-23.62781 Y31.32275
G01 X-23.55410 Y31.43870
G01 X-23.45117 Y31.62118
G01 X-23.38864 Y31.74680
G01 X-23.29524 Y31.96258
G01 X-23.24455 Y32.09842
G01 X-23.16189 Y32.36240
G01 X-23.12400 Y32.50936
G01 X-23.05674 Y32.84386
G01 X-23.03304 Y33.00314
G01 X-23.00025 Y33.30047
G01 X-22.85115 Y33.51696
G01 X-22.77741 Y33.63291
G01 X-22.58349 Y33.97675
G01 X-22.52095 Y34.10238
G01 X-22.34775 Y34.50255
G01 X-22.29705 Y34.63842
G01 X-22.14683 Y35.11810
G01 X-22.10894 Y35.26506
G01 X-21.99227 Y35.84047
G01 X-21.71580 Y36.33237
G01 X-21.65326 Y36.45800
G01 X-21.40023 Y37.04255
G01 X-21.34953 Y37.17842
G01 X-21.13177 Y37.87379
G01 X-21.09388 Y38.02076
G01 X-21.01013 Y38.38050
G01 X-20.84811 Y38.68799
G01 X-20.78557 Y38.81362
G01 X-20.61046 Y39.19055
G01 X-20.45273 Y39.58253
G01 X-20.40203 Y39.71842
G01 X-20.24907 Y40.16503
G01 X-20.11671 Y40.62949
G01 X-20.09048 Y40.73124
G01 X-20.09484 Y40.77305
G01 X-20.11158 Y40.92047
G01 X-20.09484 Y41.06792
G01 X-20.08057 Y41.20381
G01 X-20.04437 Y41.66317
G01 X-20.03231 Y42.12255
G01 X-20.03231 Y42.25844
G01 X-20.03945 Y42.61155
G01 X-20.57193 Y43.07274
G01 X-20.70782 Y43.18280
G01 X-21.06815 Y43.46050
G04 P0 ( dwell for no time -- G64 should not smooth over this point )
G00 Z5.00000 ( retract )

G00 X-2.00052 Y50.41547 ( rapid move to begin. )
G01 F100.00000
( Mill infeed pass 1/1 )
G01 Z-0.22000
G04 P0 ( dwell for no time -- G64 should not smooth over this point )
G01 F200.00000
G01 X-2.00052 Y50.41547
G01 X-2.00052 Y56.12049
G01 X-21.25126 Y56.12047
G01 X-21.02100 Y55.13599
G01 X-21.00749 Y55.07780
G01 X-20.88362 Y54.53878
G01 X-20.84562 Y54.37795
G01 X-20.71882 Y53.85537
G01 X-20.70645 Y53.80391
G01 X-20.55370 Y53.16210
G01 X-20.51872 Y53.01953
G01 X-20.46601 Y52.81090
G01 X-20.45415 Y52.76350
G01 X-20.34450 Y52.32047
G01 X-20.29921 Y52.12916
G01 X-20.41453 Y51.94908
G01 X-20.55042 Y51.73983
G01 X-20.93495 Y51.17699
G01 X-21.31951 Y50.67283
G01 X-21.45540 Y50.50503
G01 X-21.73576 Y50.17527
G01 X-22.01613 Y49.87842
G01 X-22.15204 Y49.74253
G01 X-22.58031 Y49.35500
G01 X-22.71620 Y49.24494
G01 X-23.05608 Y48.99696
G01 X-23.19197 Y48.90870
G01 X-23.47122 Y48.74690
G01 X-23.60711 Y48.67766
G01 X-23.84376 Y48.57194
G01 X-23.92575 Y48.54047
G01 X-23.99827 Y48.54047
G01 X-24.23880 Y48.54047
G01 X-24.39572 Y48.54047
G01 X-24.56646 Y48.54047
G01 X-24.70934 Y48.54047
G01 X-24.84873 Y48.54047
G01 X-24.98539 Y48.54047
G01 X-25.05051 Y48.54047
G01 X-26.25051 Y48.54047
G01 X-26.31566 Y48.54047
G01 X-26.45231 Y48.54047
G01 X-26.59171 Y48.54047
G01 X-26.73458 Y48.54047
G01 X-26.90532 Y48.54047
G01 X-27.06224 Y48.54047
G01 X-27.30260 Y48.54047
G01 X-27.48548 Y48.54047
G01 X-27.88312 Y48.54047
G01 X-28.11431 Y48.54047
G01 X-28.93577 Y48.54047
G01 X-28.93620 Y48.54047
G01 X-29.26983 Y48.54047
G01 X-29.27034 Y48.54050
G01 X-31.45327 Y48.54050
G01 X-31.45781 Y48.44741
G01 X-31.46119 Y48.38289
G01 X-31.46396 Y48.33339
G01 X-31.46528 Y48.31007
G01 X-31.49060 Y47.87550
G01 X-31.50625 Y47.33844
G01 X-31.50625 Y47.20255
G01 X-31.49350 Y46.71779
G01 X-31.45527 Y46.23303
G01 X-31.44097 Y46.09714
G01 X-31.43031 Y46.00047
G01 X-31.44097 Y45.90382
G01 X-31.45527 Y45.76793
G01 X-31.49350 Y45.28315
G01 X-31.50625 Y44.79842
G01 X-31.50625 Y44.66255
G01 X-31.49350 Y44.17779
G01 X-31.45527 Y43.69303
G01 X-31.44097 Y43.55714
G01 X-31.43031 Y43.46050
G01 X-31.44097 Y43.36382
G01 X-31.45527 Y43.22794
G01 X-31.49350 Y42.74318
G01 X-31.50625 Y42.25844
G01 X-31.50625 Y42.12255
G01 X-31.49350 Y41.63779
G01 X-31.45527 Y41.15303
G01 X-31.44097 Y41.01714
G01 X-31.43031 Y40.92047
G01 X-29.27034 Y40.92047
G01 X-29.26983 Y40.92047
G01 X-28.93620 Y40.92047
G01 X-28.93577 Y40.92047
G01 X-28.11431 Y40.92047
G01 X-27.88312 Y40.92047
G01 X-27.48548 Y40.92047
G01 X-27.30260 Y40.92047
G01 X-27.06224 Y40.92047
G01 X-26.90532 Y40.92047
G01 X-26.73458 Y40.92047
G01 X-26.59171 Y40.92047
G01 X-26.45231 Y40.92047
G01 X-26.31566 Y40.92047
G01 X-26.25051 Y40.92047
G01 X-25.05051 Y40.92047
G01 X-24.98539 Y40.92047
G01 X-24.84873 Y40.92047
G01 X-24.70934 Y40.92047
G01 X-24.56646 Y40.92047
G01 X-24.39572 Y40.92047
G01 X-24.23880 Y40.92047
G01 X-23.99827 Y40.92047
G01 X-23.81544 Y40.92047
G01 X-23.41831 Y40.92047
G01 X-23.18714 Y40.92047
G01 X-22.36527 Y40.92047
G01 X-22.36484 Y40.92047
G01 X-22.03121 Y40.92047
G01 X-22.03071 Y40.92047
G01 X-20.11158 Y40.92047
G01 X-20.09484 Y40.77305
G01 X-20.09048 Y40.73124
G01 X-20.11671 Y40.62949
G01 X-20.24907 Y40.16503
G01 X-20.40203 Y39.71842
G01 X-20.45273 Y39.58253
G01 X-20.61046 Y39.19055
G01 X-20.78557 Y38.81362
G01 X-20.84811 Y38.68799
G01 X-21.01013 Y38.38050
G01 X-22.03071 Y38.38050
G01 X-22.03121 Y38.38047
G01 X-22.36484 Y38.38047
G01 X-22.36527 Y38.38047
G01 X-23.18714 Y38.38047
G01 X-23.41831 Y38.38047
G01 X-23.81544 Y38.38047
G01 X-23.99827 Y38.38047
G01 X-24.23880 Y38.38047
G01 X-24.39572 Y38.38047
G01 X-24.56646 Y38.38047
G01 X-24.70934 Y38.38047
G01 X-24.84873 Y38.38047
G01 X-24.98539 Y38.38047
G01 X-25.05051 Y38.38047
G01 X-26.25051 Y38.38047
G01 X-26.31566 Y38.38047
G01 X-26.45231 Y38.38047
G01 X-26.59171 Y38.38047
G01 X-26.73458 Y38.38047
G01 X-26.90532 Y38.38047
G01 X-27.06224 Y38.38047
G01 X-27.30260 Y38.38047
G01 X-27.48548 Y38.38047
G01 X-27.88312 Y38.38047
G01 X-28.11431 Y38.38047
G01 X-28.93577 Y38.38047
G01 X-28.93620 Y38.38047
G01 X-29.26983 Y38.38047
G01 X-29.27034 Y38.38050
G01 X-31.43031 Y38.38050
G01 X-31.44097 Y38.47714
G01 X-31.45527 Y38.61303
G01 X-31.49350 Y39.09779
G01 X-31.50625 Y39.58255
G01 X-31.50625 Y39.71842
G01 X-31.49350 Y40.20318
G01 X-31.45527 Y40.68793
G01 X-31.44097 Y40.82382
G01 X-31.43031 Y40.92047
G01 X-31.44097 Y40.82382
G01 X-31.45527 Y40.68793
G01 X-31.49350 Y40.20318
G01 X-31.50625 Y39.71842
G01 X-31.50625 Y39.58255
G01 X-31.49350 Y39.09779
G01 X-31.45527 Y38.61303
G01 X-31.44097 Y38.47714
G01 X-31.43031 Y38.38050
G01 X-31.44097 Y38.28382
G01 X-31.45527 Y38.14793
G01 X-31.49350 Y37.66318
G01 X-31.50625 Y37.17842
G01 X-31.50625 Y37.04255
G01 X-31.49350 Y36.55779
G01 X-31.45527 Y36.07303
G01 X-31.44097 Y35.93714
G01 X-31.43031 Y35.84047
G01 X-31.44097 Y35.74383
G01 X-31.45527 Y35.60793
G01 X-31.49350 Y35.12318
G01 X-31.50625 Y34.63842
G01 X-31.50625 Y34.50255
G01 X-31.49350 Y34.01779
G01 X-31.45527 Y33.53303
G01 X-31.44097 Y33.39714
G01 X-31.43031 Y33.30050
G01 X-31.44097 Y33.20382
G01 X-31.45527 Y33.06793
G01 X-31.49350 Y32.58318
G01 X-31.50625 Y32.09842
G01 X-31.50625 Y31.96258
G01 X-31.49350 Y31.47784
G01 X-31.45527 Y30.99309
G01 X-31.44097 Y30.85720
G01 X-31.43031 Y30.76052
G01 X-31.44097 Y30.85720
G01 X-31.45527 Y30.99309
G01 X-31.49350 Y31.47784
G01 X-31.50625 Y31.96258
G01 X-31.50625 Y32.09842
G01 X-31.49350 Y32.58318
G01 X-31.45527 Y33.06793
G01 X-31.44097 Y33.20382
G01 X-31.43031 Y33.30050
G01 X-29.27034 Y33.30050
G01 X-29.26983 Y33.30047
G01 X-28.93620 Y33.30047
G01 X-28.93577 Y33.30047
G01 X-28.11431 Y33.30047
G01 X-27.88312 Y33.30047
G01 X-27.48548 Y33.30047
G01 X-27.30260 Y33.30047
G01 X-27.06224 Y33.30047
G01 X-26.90532 Y33.30047
G01 X-26.73458 Y33.30047
G01 X-26.59171 Y33.30047
G01 X-26.45231 Y33.30047
G01 X-26.31566 Y33.30047
G01 X-26.25051 Y33.30047
G01 X-25.05051 Y33.30047
G01 X-24.98539 Y33.30047
G01 X-24.84873 Y33.30047
G01 X-24.70934 Y33.30047
G01 X-24.56646 Y33.30047
G01 X-24.39572 Y33.30047
G01 X-24.23880 Y33.30047
G01 X-23.99827 Y33.30047
G01 X-23.81544 Y33.30047
G01 X-23.41831 Y33.30047
G01 X-23.18714 Y33.30047
G01 X-23.00025 Y33.30047
G01 X-22.85115 Y33.51696
G01 X-22.77741 Y33.63291
G01 X-22.58349 Y33.97675
G01 X-22.52095 Y34.10238
G01 X-22.34775 Y34.50255
G01 X-22.29705 Y34.63842
G01 X-22.14683 Y35.11810
G01 X-22.10894 Y35.26506
G01 X-21.99227 Y35.84047
G01 X-22.03071 Y35.84047
G01 X-22.03121 Y35.84047
G01 X-22.36484 Y35.84047
G01 X-22.36527 Y35.84047
G01 X-23.18714 Y35.84047
G01 X-23.41831 Y35.84047
G01 X-23.81544 Y35.84047
G01 X-23.99827 Y35.84047
G01 X-24.23880 Y35.84047
G01 X-24.39572 Y35.84047
G01 X-24.56646 Y35.84047
G01 X-24.70934 Y35.84047
G01 X-24.84873 Y35.84047
G01 X-24.98539 Y35.84047
G01 X-25.05051 Y35.84047
G01 X-26.25051 Y35.84047
G01 X-26.31566 Y35.84047
G01 X-26.45231 Y35.84047
G01 X-26.59171 Y35.84047
G01 X-26.73458 Y35.84047
G01 X-26.90532 Y35.84047
G01 X-27.06224 Y35.84047
G01 X-27.30260 Y35.84047
G01 X-27.48548 Y35.84047
G01 X-27.88312 Y35.84047
G01 X-28.11431 Y35.84047
G01 X-28.93577 Y35.84047
G01 X-28.93620 Y35.84047
G01 X-29.26983 Y35.84047
G01 X-29.27034 Y35.84047
G01 X-31.43031 Y35.84047
G01 X-31.44097 Y35.93714
G01 X-31.45527 Y36.07303
G01 X-31.49350 Y36.55779
G01 X-31.50625 Y37.04255
G01 X-31.50625 Y37.17842
G01 X-31.49350 Y37.66318
G01 X-31.45527 Y38.14793
G01 X-31.44097 Y38.28382
G01 X-31.43031 Y38.38050
G01 X-31.44097 Y38.47714
G01 X-31.45527 Y38.61303
G01 X-31.49350 Y39.09779
G01 X-31.50625 Y39.58255
G01 X-31.50625 Y39.71842
G01 X-31.49350 Y40.20318
G01 X-31.45527 Y40.68793
G01 X-31.44097 Y40.82382
G01 X-31.43031 Y40.92047
G01 X-31.44097 Y41.01714
G01 X-31.45527 Y41.15303
G01 X-31.49350 Y41.63779
G01 X-31.50625 Y42.12255
G01 X-31.50625 Y42.25844
G01 X-31.49350 Y42.74318
G01 X-31.45527 Y43.22794
G01 X-31.44097 Y43.36382
G01 X-31.43031 Y43.46050
G01 X-29.27034 Y43.46050
G01 X-29.26983 Y43.46047
G01 X-28.93620 Y43.46047
G01 X-28.93577 Y43.46047
G01 X-28.11431 Y43.46047
G01 X-27.88312 Y43.46047
G01 X-27.48548 Y43.46047
G01 X-27.30260 Y43.46047
G01 X-27.06224 Y43.46047
G01 X-26.90532 Y43.46047
G01 X-26.73458 Y43.46047
G01 X-26.59171 Y43.46047
G01 X-26.45231 Y43.46047
G01 X-26.31566 Y43.46047
G01 X-26.25051 Y43.46047
G01 X-25.05051 Y43.46047
G01 X-24.98539 Y43.46047
G01 X-24.84873 Y43.46047
G01 X-24.70934 Y43.46047
G01 X-24.56646 Y43.46047
G01 X-24.39572 Y43.46047
G01 X-24.23880 Y43.46047
G01 X-23.99827 Y43.46047
G01 X-23.81544 Y43.46047
G01 X-23.41831 Y43.46047
G01 X-23.18714 Y43.46047
G01 X-22.36527 Y43.46047
G01 X-22.36484 Y43.46047
G01 X-22.03121 Y43.46047
G01 X-22.03071 Y43.46050
G01 X-21.06815 Y43.46050
G01 X-21.39362 Y43.88389
G01 X-21.52949 Y44.05171
G01 X-21.80282 Y44.37317
G01 X-22.07615 Y44.66253
G01 X-22.21206 Y44.79842
G01 X-22.62890 Y45.17566
G01 X-22.76479 Y45.28569
G01 X-23.09517 Y45.52674
G01 X-23.23106 Y45.61498
G01 X-23.50177 Y45.77185
G01 X-23.63766 Y45.84109
G01 X-23.86682 Y45.94342
G01 X-24.00266 Y45.99560
G01 X-24.01549 Y46.00047
G01 X-24.23880 Y46.00047
G01 X-24.39572 Y46.00047
G01 X-24.56646 Y46.00047
G01 X-24.70934 Y46.00047
G01 X-24.84873 Y46.00047
G01 X-24.98539 Y46.00047
G01 X-25.05051 Y46.00047
G01 X-26.25051 Y46.00047
G01 X-26.31566 Y46.00047
G01 X-26.45231 Y46.00047
G01 X-26.59171 Y46.00047
G01 X-26.73458 Y46.00047
G01 X-26.90532 Y46.00047
G01 X-27.06224 Y46.00047
G01 X-27.30260 Y46.00047
G01 X-27.48548 Y46.00047
G01 X-27.88312 Y46.00047
G01 X-28.11431 Y46.00047
G01 X-28.93577 Y46.00047
G01 X-28.93620 Y46.00047
G01 X-29.26983 Y46.00047
G01 X-29.27034 Y46.00047
G01 X-31.43031 Y46.00047
G01 X-31.44097 Y46.09714
G01 X-31.45527 Y46.23303
G01 X-31.49350 Y46.71779
G01 X-31.50625 Y47.20255
G01 X-31.50625 Y47.33844
G01 X-31.49060 Y47.87550
G01 X-31.46528 Y48.31007
G01 X-31.46396 Y48.33339
G01 X-31.46119 Y48.38289
G01 X-31.45781 Y48.44741
G01 X-31.45327 Y48.54050
G01 X-31.46975 Y48.63102
G01 X-31.49508 Y48.76458
G01 X-31.59977 Y49.29561
G01 X-31.60917 Y49.34395
G01 X-31.68560 Y49.74255
G01 X-31.71265 Y49.87842
G01 X-31.79764 Y50.28995
G01 X-31.80785 Y50.34006
G01 X-31.93041 Y50.94898
G01 X-31.96068 Y51.09434
G01 X-32.02746 Y51.40498
G01 X-32.03891 Y51.45896
G01 X-32.16800 Y52.07295
G01 X-32.23256 Y52.39967
G01 X-32.26261 Y52.56180
G01 X-32.39203 Y53.38753
G01 X-32.48166 Y54.25306
G01 X-32.49568 Y54.43119
G01 X-32.55060 Y55.50030
G01 X-32.56635 Y56.12047
G01 X-21.25126 Y56.12047
G01 X-32.56635 Y56.12047
G01 X-53.46770 Y56.12047
G01 X-72.00048 Y56.12049
G01 X-72.00046 Y50.41547
G01 X-72.00046 Y31.43545
G01 X-72.00048 Y2.00051
G01 X-61.51846 Y2.00053
G01 X-11.56141 Y2.00053
G01 X-2.00052 Y2.00051
G01 X-2.00054 Y31.36553
G01 X-2.00052 Y50.41547
G01 X-2.40778 Y50.41547
G01 X-2.59064 Y50.41547
G01 X-3.14819 Y50.41547
G01 X-3.30511 Y50.41547
G01 X-3.72310 Y50.41547
G01 X-3.86597 Y50.41547
G01 X-4.22078 Y50.41547
G01 X-4.35741 Y50.41547
G01 X-4.52551 Y50.41547
G01 X-5.72551 Y50.41547
G01 X-5.89360 Y50.41547
G01 X-6.03025 Y50.41547
G01 X-6.38509 Y50.41547
G01 X-6.52797 Y50.41547
G01 X-6.94615 Y50.41547
G01 X-7.10307 Y50.41547
G01 X-7.12113 Y50.41547
G01 X-9.72987 Y50.41547
G01 X-9.74798 Y50.41547
G01 X-9.90490 Y50.41547
G01 X-10.32308 Y50.41547
G01 X-10.46596 Y50.41547
G01 X-10.82080 Y50.41547
G01 X-10.95745 Y50.41547
G01 X-11.12555 Y50.41547
G01 X-12.32552 Y50.41547
G01 X-12.49364 Y50.41547
G01 X-12.63027 Y50.41547
G01 X-12.98508 Y50.41547
G01 X-13.12795 Y50.41547
G01 X-13.34170 Y50.41547
G01 X-13.44670 Y50.24357
G01 X-13.52519 Y50.10765
G01 X-13.69102 Y49.78327
G01 X-13.75150 Y49.64738
G01 X-13.86036 Y49.36470
G01 X-13.90451 Y49.22881
G01 X-13.97314 Y48.97344
G01 X-14.00204 Y48.83758
G01 X-14.03989 Y48.59927
G01 X-14.05417 Y48.46338
G01 X-14.06623 Y48.23344
G01 X-14.06623 Y48.09752
G01 X-14.05417 Y47.86758
G01 X-14.03989 Y47.73169
G01 X-14.00204 Y47.49338
G01 X-13.97314 Y47.35752
G01 X-13.94528 Y47.24050
G01 X-13.90456 Y47.10227
G01 X-13.86041 Y46.96636
G01 X-13.75142 Y46.68335
G01 X-13.69092 Y46.54749
G01 X-13.52519 Y46.22331
G01 X-13.44670 Y46.08739
G01 X-13.19694 Y45.70428
G01 X-13.09824 Y45.56839
G01 X-12.71609 Y45.09859
G01 X-12.59377 Y44.96275
G01 X-12.32554 Y44.68046
G01 X-12.29054 Y44.64548
G01 X-11.51124 Y44.64548
G01 X-11.18582 Y44.72455
G01 X-11.12555 Y44.73738
G01 X-11.02941 Y44.75869
G01 X-10.84051 Y44.80230
G01 X-10.70693 Y44.83136
G01 X-10.46857 Y44.88018
G01 X-10.31544 Y44.91383
G01 X-10.15250 Y44.95216
G01 X-10.01922 Y44.98175
G01 X-9.75392 Y45.03715
G01 X-9.59713 Y45.07220
G01 X-9.51110 Y45.09275
G01 X-9.00411 Y45.06225
G01 X-8.84732 Y45.04579
G01 X-8.75179 Y45.03494
G01 X-8.72332 Y43.85699
G01 X-8.70681 Y43.50855
G01 X-8.67252 Y43.03944
G01 X-8.64668 Y42.80825
G01 X-8.61267 Y42.58783
G01 X-8.57544 Y42.41039
G01 X-8.53894 Y42.27546
G01 X-8.53820 Y42.27269
G01 X-8.49616 Y42.11587
G01 X-8.47130 Y41.99916
G01 X-8.44646 Y41.84239
G01 X-8.43510 Y41.73467
G01 X-8.42690 Y41.57787
G01 X-8.42690 Y41.47310
G01 X-8.43510 Y41.31628
G01 X-8.44646 Y41.20856
G01 X-8.47130 Y41.05179
G01 X-8.49616 Y40.93508
G01 X-8.53820 Y40.77826
G01 X-8.53894 Y40.77549
G01 X-8.57544 Y40.64056
G01 X-8.61267 Y40.46312
G01 X-8.62471 Y40.38504
G01 X-8.52687 Y40.10765
G01 X-8.37772 Y39.83025
G01 X-8.17727 Y39.55286
G01 X-7.92550 Y39.27547
G01 X-7.14552 Y38.49546
G01 X-7.14552 Y37.01197
G01 X-7.26863 Y36.63702
G01 X-7.35657 Y36.26206
G01 X-7.40932 Y35.88711
G01 X-7.42690 Y35.51215
G01 X-7.42690 Y34.83885
G01 X-7.40549 Y34.42490
G01 X-7.34117 Y34.01099
G01 X-7.23404 Y33.59702
G01 X-7.08400 Y33.18312
G01 X-6.80511 Y32.50977
G01 X-6.53152 Y31.93766
G01 X-6.18476 Y31.36553
G01 X-4.95215 Y31.36553
G01 X-4.27885 Y31.36553
G01 X-2.00054 Y31.36553
G01 X-4.27885 Y31.36553
G01 X-4.95215 Y31.36553
G01 X-6.18476 Y31.36553
G01 X-6.53152 Y30.79336
G01 X-6.80511 Y30.22123
G01 X-7.08400 Y29.54788
G01 X-7.23404 Y29.13396
G01 X-7.34117 Y28.72004
G01 X-7.40549 Y28.30610
G01 X-7.42690 Y27.89215
G01 X-7.42690 Y27.21885
G01 X-7.40932 Y26.84389
G01 X-7.35657 Y26.46894
G01 X-7.26863 Y26.09398
G01 X-7.14552 Y25.71903
G01 X-7.14554 Y25.44849
G01 X-7.55420 Y24.46186
G01 X-7.92550 Y24.09056
G01 X-8.17727 Y23.81314
G01 X-8.37772 Y23.53575
G01 X-8.52687 Y23.25835
G01 X-8.62471 Y22.98096
G01 X-8.61267 Y22.90288
G01 X-8.57544 Y22.72544
G01 X-8.53894 Y22.59054
G01 X-8.53820 Y22.58774
G01 X-8.49616 Y22.43092
G01 X-8.47130 Y22.31421
G01 X-8.44646 Y22.15744
G01 X-8.43510 Y22.04972
G01 X-8.42690 Y21.89290
G01 X-8.42690 Y21.78813
G01 X-8.43510 Y21.63133
G01 X-8.44646 Y21.52361
G01 X-8.47130 Y21.36684
G01 X-8.49616 Y21.25013
G01 X-8.53820 Y21.09331
G01 X-8.53894 Y21.09051
G01 X-8.57544 Y20.95561
G01 X-8.61267 Y20.77817
G01 X-8.62471 Y20.70009
G01 X-8.52687 Y20.42270
G01 X-8.37772 Y20.14530
G01 X-8.17727 Y19.86791
G01 X-7.92550 Y19.59049
G01 X-6.99467 Y18.65966
G01 X-6.99004 Y18.65001
G01 X-6.69716 Y18.60497
G01 X-6.54527 Y18.57729
G01 X-6.07016 Y18.46537
G01 X-5.92916 Y18.42407
G01 X-5.72553 Y18.35862
G01 X-4.52551 Y17.93769
G01 X-4.37880 Y17.88191
G01 X-4.35838 Y17.87353
G01 X-4.25510 Y17.75882
G01 X-4.05274 Y17.51003
G01 X-3.95401 Y17.37414
G01 X-3.82764 Y17.18031
G01 X-3.74918 Y17.04440
G01 X-3.66925 Y16.88806
G01 X-3.60875 Y16.75219
G01 X-3.55861 Y16.62199
G01 X-3.51446 Y16.48610
G01 X-3.48421 Y16.37353
G01 X-3.45533 Y16.23764
G01 X-3.43915 Y16.13586
G01 X-3.42488 Y15.99997
G01 X-3.41980 Y15.90348
G01 X-3.41980 Y15.76756
G01 X-3.42488 Y15.67107
G01 X-3.43915 Y15.53518
G01 X-3.45533 Y15.43340
G01 X-3.48421 Y15.29751
G01 X-3.51449 Y15.18489
G01 X-3.55863 Y15.04900
G01 X-3.60872 Y14.91895
G01 X-3.66920 Y14.78308
G01 X-3.74918 Y14.62665
G01 X-3.82764 Y14.49073
G01 X-3.95413 Y14.29673
G01 X-4.05286 Y14.16084
G01 X-4.25510 Y13.91225
G01 X-4.37745 Y13.77636
G01 X-4.46846 Y13.67869
G01 X-4.52553 Y13.65441
G01 X-4.69183 Y13.58553
G01 X-5.72551 Y13.58553
G01 X-5.89360 Y13.58553
G01 X-6.03025 Y13.58553
G01 X-6.38509 Y13.58553
G01 X-6.52797 Y13.58553
G01 X-6.94615 Y13.58553
G01 X-7.10307 Y13.58553
G01 X-7.12113 Y13.58553
G01 X-9.72987 Y13.58553
G01 X-9.74798 Y13.58553
G01 X-9.90490 Y13.58553
G01 X-10.32308 Y13.58553
G01 X-10.46596 Y13.58553
G01 X-10.82080 Y13.58553
G01 X-10.95745 Y13.58553
G01 X-11.12555 Y13.58553
G01 X-12.32552 Y13.58553
G01 X-12.49364 Y13.58553
G01 X-12.63027 Y13.58553
G01 X-12.98508 Y13.58553
G01 X-13.12795 Y13.58553
G01 X-13.54594 Y13.58553
G01 X-13.70286 Y13.58553
G01 X-13.72120 Y13.58553
G01 X-14.13743 Y13.44897
G01 X-14.27332 Y13.39680
G01 X-14.75226 Y13.18286
G01 X-14.88815 Y13.11362
G01 X-15.43730 Y12.79543
G01 X-15.57319 Y12.70719
G01 X-15.88076 Y12.49576
G01 X-15.92386 Y12.16965
G01 X-15.93813 Y12.03379
G01 X-15.97123 Y11.40349
G01 X-15.97123 Y11.26757
G01 X-15.93813 Y10.63727
G01 X-15.92386 Y10.50141
G01 X-15.82096 Y9.85353
G01 X-15.79206 Y9.71766
G01 X-15.60847 Y9.03446
G01 X-15.56432 Y8.89854
G01 X-15.43270 Y8.52780
G01 X-15.27878 Y8.15704
G01 X-15.21830 Y8.02117
G01 X-15.02036 Y7.60733
G01 X-14.79506 Y7.19346
G01 X-14.71660 Y7.05757
G01 X-14.43633 Y6.60050
G01 X-14.12686 Y6.12372
G01 X-14.10301 Y6.08709
G01 X-14.09254 Y6.07109
G01 X-14.00794 Y5.94002
G01 X-13.30156 Y4.83055
G01 X-13.26092 Y4.76703
G01 X-13.10890 Y4.53043
G01 X-12.99168 Y4.34577
G01 X-12.32552 Y3.28392
G01 X-12.01358 Y2.77506
G01 X-11.96456 Y2.69324
G01 X-11.56141 Y2.00053
G04 P0 ( dwell for no time -- G64 should not smooth over this point )
G00 Z5.00000 ( retract )

G00 X-21.77376 Y27.27315 ( rapid move to begin. )
G01 F100.00000
( Mill infeed pass 1/1 )
G01 Z-0.22000
G04 P0 ( dwell for no time -- G64 should not smooth over this point )
G01 F200.00000
G01 X-21.77376 Y27.27315
G01 X-22.27358 Y27.47122
G01 X-22.49502 Y27.56307
G01 X-22.51257 Y27.57071
G01 X-22.59578 Y27.60620
G01 X-23.01610 Y27.78199
G01 X-23.08971 Y27.81361
G01 X-23.15570 Y27.84272
G01 X-23.18470 Y27.85565
G01 X-23.48033 Y27.98898
G01 X-23.49608 Y27.99604
G01 X-23.53677 Y28.01407
G01 X-23.63748 Y28.06126
G01 X-23.66550 Y28.07511
G01 X-23.86682 Y28.16347
G01 X-24.00266 Y28.21565
G01 X-24.01549 Y28.22052
G01 X-24.23880 Y28.22052
G01 X-24.39572 Y28.22052
G01 X-24.56646 Y28.22052
G01 X-24.70934 Y28.22052
G01 X-24.84873 Y28.22052
G01 X-24.98539 Y28.22052
G01 X-25.05051 Y28.22052
G01 X-26.25051 Y28.22052
G01 X-26.31566 Y28.22052
G01 X-26.45231 Y28.22052
G01 X-26.59171 Y28.22052
G01 X-26.73458 Y28.22052
G01 X-26.90532 Y28.22052
G01 X-27.06224 Y28.22052
G01 X-27.30260 Y28.22052
G01 X-27.48548 Y28.22052
G01 X-27.88312 Y28.22052
G01 X-28.11431 Y28.22052
G01 X-28.93577 Y28.22052
G01 X-28.93620 Y28.22052
G01 X-29.26983 Y28.22052
G01 X-29.27034 Y28.22052
G01 X-30.29581 Y28.22052
G01 X-30.64113 Y28.48732
G01 X-30.77702 Y28.59736
G01 X-31.42538 Y29.16616
G01 X-31.80643 Y28.72306
G01 X-31.91098 Y28.60693
G01 X-32.28588 Y28.21021
G01 X-32.66081 Y27.85296
G01 X-32.76530 Y27.75888
G01 X-33.06518 Y27.50196
G01 X-33.36505 Y27.27105
G01 X-33.46957 Y27.19507
G01 X-33.97094 Y26.86820
G01 X-34.07549 Y26.80785
G01 X-34.50706 Y26.58720
G01 X-34.61158 Y26.54067
G01 X-34.99487 Y26.39309
G01 X-35.09939 Y26.35913
G01 X-35.45072 Y26.26470
G01 X-35.55524 Y26.24247
G01 X-35.88671 Y26.18982
G01 X-35.99126 Y26.17882
G01 X-36.31328 Y26.16188
G01 X-36.41777 Y26.16188
G01 X-36.73979 Y26.17882
G01 X-36.84434 Y26.18982
G01 X-37.17579 Y26.24247
G01 X-37.28031 Y26.26470
G01 X-37.47086 Y26.31100
G01 X-37.59384 Y26.41113
G01 X-37.67357 Y26.47923
G01 X-37.92392 Y26.71677
G01 X-37.99590 Y26.79261
G01 X-38.22244 Y27.05794
G01 X-38.28663 Y27.14158
G01 X-38.49435 Y27.44420
G01 X-38.55051 Y27.53584
G01 X-38.74126 Y27.88786
G01 X-38.78902 Y27.98791
G01 X-38.96389 Y28.41148
G01 X-39.00255 Y28.52065
G01 X-39.15610 Y29.04186
G01 X-39.18472 Y29.16103
G01 X-39.22300 Y29.33142
G01 X-39.22300 Y29.41153
G01 X-39.29943 Y29.73601
G01 X-39.32744 Y29.84056
G01 X-39.51868 Y30.42725
G01 X-39.55881 Y30.53177
G01 X-39.84657 Y31.17594
G01 X-39.89983 Y31.28049
G01 X-40.09839 Y31.64518
G01 X-40.32244 Y32.00982
G01 X-40.39031 Y32.11434
G01 X-40.68391 Y32.54022
G01 X-41.01169 Y32.96608
G01 X-41.09633 Y33.07063
G01 X-41.50255 Y33.54647
G01 X-41.95060 Y34.02231
G01 X-41.93978 Y34.50255
G01 X-41.93978 Y34.63844
G01 X-41.95447 Y35.19788
G01 X-41.99856 Y35.75734
G01 X-42.00730 Y35.84047
G01 X-42.26099 Y35.84047
G01 X-44.89065 Y35.84047
G01 X-44.89116 Y35.84047
G01 X-45.22479 Y35.84047
G01 X-45.22522 Y35.84047
G01 X-46.04709 Y35.84047
G01 X-46.27826 Y35.84047
G01 X-46.67536 Y35.84047
G01 X-46.85821 Y35.84047
G01 X-47.09875 Y35.84047
G01 X-47.25567 Y35.84047
G01 X-47.42641 Y35.84047
G01 X-47.56929 Y35.84047
G01 X-47.70868 Y35.84047
G01 X-47.84533 Y35.84047
G01 X-47.91049 Y35.84047
G01 X-49.11048 Y35.84047
G01 X-49.17561 Y35.84047
G01 X-49.31226 Y35.84047
G01 X-49.45166 Y35.84047
G01 X-49.59453 Y35.84047
G01 X-49.76527 Y35.84047
G01 X-49.92217 Y35.84047
G01 X-50.16253 Y35.84047
G01 X-50.19047 Y35.84047
G01 X-50.30560 Y35.79628
G01 X-50.53880 Y35.69209
G01 X-50.67469 Y35.62284
G01 X-50.94942 Y35.46366
G01 X-51.08531 Y35.37542
G01 X-51.42018 Y35.13113
G01 X-51.55607 Y35.02109
G01 X-51.97898 Y34.63842
G01 X-52.11487 Y34.50255
G01 X-52.39199 Y34.20913
G01 X-52.66910 Y33.88315
G01 X-52.80499 Y33.71533
G01 X-52.95973 Y33.51939
G01 X-53.01154 Y33.40746
G01 X-53.06023 Y33.30050
G01 X-53.11040 Y33.24401
G01 X-53.32782 Y32.99684
G01 X-53.43239 Y32.88015
G01 X-53.71652 Y32.56882
G01 X-53.78756 Y32.49014
G01 X-53.85851 Y32.48267
G01 X-54.27890 Y32.44952
G01 X-54.69930 Y32.43847
G01 X-54.85606 Y32.43847
G01 X-55.27646 Y32.44952
G01 X-55.69686 Y32.48267
G01 X-55.85365 Y32.49915
G01 X-56.28446 Y32.55602
G01 X-56.71529 Y32.63601
G01 X-56.87209 Y32.66931
G01 X-56.95075 Y32.68640
G01 X-57.04313 Y32.68640
G01 X-57.21199 Y32.86016
G01 X-57.59886 Y33.52397
G01 X-57.98575 Y34.10867
G01 X-58.37262 Y34.61424
G01 X-58.75951 Y35.04068
G01 X-59.43281 Y35.71398
G01 X-59.64490 Y35.90760
G01 X-59.74620 Y35.99127
G01 X-59.79563 Y36.03092
G01 X-59.95755 Y36.15701
G01 X-60.00256 Y36.19089
G01 X-60.10195 Y36.26318
G01 X-60.14112 Y36.29262
G01 X-60.18364 Y36.32561
G01 X-60.30630 Y36.43181
G01 X-60.34475 Y36.46889
G01 X-60.40109 Y36.52620
G01 X-60.58923 Y36.72815
G01 X-60.83284 Y36.94027
G01 X-61.12727 Y37.10829
G01 X-61.80058 Y37.41550
G01 X-62.15376 Y37.54938
G01 X-62.36954 Y37.23376
G01 X-62.52862 Y36.91812
G01 X-62.80751 Y36.24476
G01 X-62.88993 Y35.97936
G01 X-62.91742 Y35.71398
G01 X-62.91742 Y35.04065
G01 X-62.88993 Y34.77527
G01 X-62.80751 Y34.50987
G01 X-62.65399 Y34.13923
G01 X-62.73329 Y28.59421
G01 X-62.94256 Y28.08895
G01 X-63.01018 Y27.87130
G01 X-63.03273 Y27.65365
G01 X-63.03273 Y26.98032
G01 X-63.01018 Y26.76266
G01 X-62.94256 Y26.54501
G01 X-62.66362 Y25.87168
G01 X-62.55465 Y25.64804
G01 X-62.41290 Y25.42441
G01 X-62.23837 Y25.20077
G01 X-62.03113 Y24.97712
G01 X-61.35783 Y24.30382
G01 X-61.02103 Y23.98949
G01 X-60.63937 Y23.67517
G01 X-60.21277 Y23.36084
G01 X-59.74130 Y23.04652
G01 X-59.69855 Y23.02805
G01 X-59.13188 Y22.94766
G01 X-58.56337 Y22.88309
G01 X-58.49533 Y22.87555
G01 X-57.79342 Y22.79960
G01 X-57.27470 Y22.50557
G01 X-57.22568 Y22.47619
G01 X-56.74356 Y22.17281
G01 X-56.26145 Y21.84053
G01 X-55.85693 Y21.84053
G01 X-55.81898 Y21.80260
G01 X-55.29975 Y21.30558
G01 X-54.78050 Y20.85305
G01 X-54.66630 Y20.75841
G01 X-54.53435 Y20.64756
G01 X-54.47918 Y20.60055
G01 X-54.42670 Y20.53062
G01 X-54.32297 Y20.39064
G01 X-54.30478 Y20.36575
G01 X-54.27954 Y20.33136
G01 X-53.61243 Y19.42529
G01 X-53.59262 Y19.39847
G01 X-53.57611 Y19.37622
G01 X-53.49315 Y19.26260
G01 X-53.09084 Y18.70274
G01 X-53.05886 Y18.65857
G01 X-52.99681 Y18.57350
G01 X-52.91068 Y18.45290
G01 X-52.66689 Y18.10383
G01 X-52.63760 Y18.06228
G01 X-52.63638 Y18.06052
G01 X-52.54540 Y17.72560
G01 X-52.50461 Y17.58181
G01 X-52.46069 Y17.43355
G01 X-52.25792 Y16.85849
G01 X-52.20164 Y16.72258
G01 X-51.97697 Y16.25042
G01 X-51.90933 Y16.12586
G01 X-51.79829 Y15.93271
G01 X-51.68675 Y15.74933
G01 X-51.67167 Y15.72469
G01 X-51.66087 Y15.70719
G01 X-51.60111 Y15.60737
G01 X-51.55071 Y15.52052
G01 X-51.54403 Y15.40846
G01 X-51.53895 Y15.30239
G01 X-51.53730 Y15.25672
G01 X-51.53697 Y15.24785
G01 X-51.52181 Y14.84940
G01 X-51.52112 Y14.83264
G01 X-51.51970 Y14.79883
G01 X-51.51670 Y14.69276
G01 X-51.51317 Y14.44168
G01 X-51.51213 Y14.39253
G01 X-51.51007 Y14.31847
G01 X-51.50870 Y14.22050
G01 X-51.50870 Y14.18260
G01 X-51.48932 Y13.81413
G01 X-51.47505 Y13.67824
G01 X-51.41480 Y13.29904
G01 X-51.38592 Y13.16315
G01 X-51.27764 Y12.76015
G01 X-51.23349 Y12.62426
G01 X-51.06357 Y12.18296
G01 X-51.00304 Y12.04705
G01 X-50.74855 Y11.54928
G01 X-50.67009 Y11.41339
G01 X-50.29207 Y10.83354
G01 X-50.19331 Y10.69765
G01 X-49.92453 Y10.34860
G01 X-49.62542 Y9.99955
G01 X-49.50304 Y9.86366
G01 X-49.11048 Y9.45051
G01 X-48.98773 Y9.32777
G01 X-47.91049 Y9.32777
G01 X-47.46284 Y9.33951
G01 X-47.32692 Y9.34662
G01 X-46.61966 Y9.41289
G01 X-46.43736 Y9.49640
G01 X-46.31265 Y9.55236
G01 X-45.99025 Y9.69399
G01 X-45.66251 Y10.22122
G01 X-45.58405 Y10.35708
G01 X-45.37422 Y10.74260
G01 X-45.18987 Y11.12810
G01 X-45.12939 Y11.26397
G01 X-44.86411 Y11.95292
G01 X-44.81994 Y12.08881
G01 X-44.64918 Y12.72426
G01 X-44.62030 Y12.86018
G01 X-44.52477 Y13.46157
G01 X-44.51049 Y13.59746
G01 X-44.47976 Y14.18260
G01 X-44.47976 Y14.31847
G01 X-44.51049 Y14.90361
G01 X-44.52477 Y15.03950
G01 X-44.59599 Y15.52052
G01 X-44.52477 Y16.00157
G01 X-44.51049 Y16.13746
G01 X-44.47976 Y16.72258
G01 X-44.47976 Y16.85847
G01 X-44.51049 Y17.44361
G01 X-44.52477 Y17.57950
G01 X-44.59599 Y18.06052
G01 X-44.52477 Y18.54157
G01 X-44.51049 Y18.67746
G01 X-44.47976 Y19.26260
G01 X-44.47976 Y19.39847
G01 X-44.51049 Y19.98361
G01 X-44.52477 Y20.11950
G01 X-44.59599 Y20.60052
G01 X-44.52477 Y21.08157
G01 X-44.51176 Y21.20550
G01 X-44.51049 Y21.21746
G01 X-44.48237 Y21.47969
G01 X-44.47735 Y21.52849
G01 X-44.45040 Y21.80258
G01 X-44.43536 Y21.93849
G01 X-44.41778 Y22.08160
G01 X-44.41194 Y22.13103
G01 X-44.36360 Y22.55482
G01 X-44.34567 Y22.69755
G01 X-44.34173 Y22.72622
G01 X-44.33485 Y22.77814
G01 X-44.28812 Y23.14055
G01 X-44.15659 Y23.39940
G01 X-44.13401 Y23.44426
G01 X-44.09149 Y23.52950
G01 X-44.02738 Y23.65480
G01 X-43.98174 Y23.74179
G01 X-43.70094 Y24.34258
G01 X-43.68522 Y24.38053
G01 X-43.70094 Y24.34258
G01 X-43.98174 Y23.74179
G01 X-44.02738 Y23.65480
G01 X-44.09149 Y23.52950
G01 X-44.13401 Y23.44426
G01 X-44.15659 Y23.39940
G01 X-44.28812 Y23.14055
G01 X-44.89065 Y23.14055
G01 X-44.89116 Y23.14052
G01 X-45.22479 Y23.14052
G01 X-45.22522 Y23.14052
G01 X-46.04709 Y23.14052
G01 X-46.27826 Y23.14052
G01 X-46.67536 Y23.14052
G01 X-46.85821 Y23.14052
G01 X-47.09875 Y23.14052
G01 X-47.25567 Y23.14052
G01 X-47.42641 Y23.14052
G01 X-47.56929 Y23.14052
G01 X-47.70868 Y23.14052
G01 X-47.84533 Y23.14052
G01 X-47.91049 Y23.14052
G01 X-49.11048 Y23.14052
G01 X-49.17561 Y23.14052
G01 X-49.31226 Y23.14052
G01 X-49.45166 Y23.14052
G01 X-49.59453 Y23.14052
G01 X-49.76527 Y23.14052
G01 X-49.92217 Y23.14052
G01 X-50.16253 Y23.14052
G01 X-50.34543 Y23.14052
G01 X-50.74307 Y23.14052
G01 X-50.97426 Y23.14052
G01 X-51.79572 Y23.14052
G01 X-51.79615 Y23.14052
G01 X-52.12978 Y23.14052
G01 X-52.13029 Y23.14055
G01 X-54.40806 Y23.14055
G01 X-54.48075 Y23.08213
G01 X-54.61667 Y22.97210
G01 X-55.18781 Y22.48246
G01 X-55.75896 Y21.93849
G01 X-55.85693 Y21.84053
G01 X-55.81898 Y21.80260
G01 X-55.29975 Y21.30558
G01 X-54.78050 Y20.85305
G01 X-54.66630 Y20.75841
G01 X-54.53435 Y20.64756
G01 X-54.47918 Y20.60055
G01 X-52.13029 Y20.60052
G01 X-52.12978 Y20.60052
G01 X-51.79615 Y20.60052
G01 X-51.79572 Y20.60052
G01 X-50.97426 Y20.60052
G01 X-50.74307 Y20.60052
G01 X-50.34543 Y20.60052
G01 X-50.16253 Y20.60052
G01 X-49.92217 Y20.60052
G01 X-49.76527 Y20.60052
G01 X-49.59453 Y20.60052
G01 X-49.45166 Y20.60052
G01 X-49.31226 Y20.60052
G01 X-49.17561 Y20.60052
G01 X-49.11048 Y20.60052
G01 X-47.91049 Y20.60052
G01 X-47.84533 Y20.60052
G01 X-47.70868 Y20.60052
G01 X-47.56929 Y20.60052
G01 X-47.42641 Y20.60052
G01 X-47.25567 Y20.60052
G01 X-47.09875 Y20.60052
G01 X-46.85821 Y20.60052
G01 X-46.67536 Y20.60052
G01 X-46.27826 Y20.60052
G01 X-46.04709 Y20.60052
G01 X-45.22522 Y20.60052
G01 X-45.22479 Y20.60052
G01 X-44.89116 Y20.60052
G01 X-44.89065 Y20.60052
G01 X-44.59599 Y20.60052
G01 X-44.52477 Y20.11950
G01 X-44.51049 Y19.98361
G01 X-44.47976 Y19.39847
G01 X-44.47976 Y19.26260
G01 X-44.51049 Y18.67746
G01 X-44.52477 Y18.54157
G01 X-44.59599 Y18.06052
G01 X-44.89065 Y18.06052
G01 X-44.89116 Y18.06052
G01 X-45.22479 Y18.06052
G01 X-45.22522 Y18.06052
G01 X-46.04709 Y18.06052
G01 X-46.27826 Y18.06052
G01 X-46.67536 Y18.06052
G01 X-46.85821 Y18.06052
G01 X-47.09875 Y18.06052
G01 X-47.25567 Y18.06052
G01 X-47.42641 Y18.06052
G01 X-47.56929 Y18.06052
G01 X-47.70868 Y18.06052
G01 X-47.84533 Y18.06052
G01 X-47.91049 Y18.06052
G01 X-49.11048 Y18.06052
G01 X-49.17561 Y18.06052
G01 X-49.31226 Y18.06052
G01 X-49.45166 Y18.06052
G01 X-49.59453 Y18.06052
G01 X-49.76527 Y18.06052
G01 X-49.92217 Y18.06052
G01 X-50.16253 Y18.06052
G01 X-50.34543 Y18.06052
G01 X-50.74307 Y18.06052
G01 X-50.97426 Y18.06052
G01 X-51.79572 Y18.06052
G01 X-51.79615 Y18.06052
G01 X-52.12978 Y18.06052
G01 X-52.13029 Y18.06052
G01 X-52.63638 Y18.06052
G01 X-52.54540 Y17.72560
G01 X-52.50461 Y17.58181
G01 X-52.46069 Y17.43355
G01 X-52.25792 Y16.85849
G01 X-52.20164 Y16.72258
G01 X-51.97697 Y16.25042
G01 X-51.90933 Y16.12586
G01 X-51.79829 Y15.93271
G01 X-51.68675 Y15.74933
G01 X-51.67167 Y15.72469
G01 X-51.66087 Y15.70719
G01 X-51.60111 Y15.60737
G01 X-51.55071 Y15.52052
G01 X-50.97426 Y15.52052
G01 X-50.74307 Y15.52052
G01 X-50.34543 Y15.52052
G01 X-50.16253 Y15.52052
G01 X-49.92217 Y15.52052
G01 X-49.76527 Y15.52052
G01 X-49.59453 Y15.52052
G01 X-49.45166 Y15.52052
G01 X-49.31226 Y15.52052
G01 X-49.17561 Y15.52052
G01 X-49.11048 Y15.52052
G01 X-47.91049 Y15.52052
G01 X-47.84533 Y15.52052
G01 X-47.70868 Y15.52052
G01 X-47.56929 Y15.52052
G01 X-47.42641 Y15.52052
G01 X-47.25567 Y15.52052
G01 X-47.09875 Y15.52052
G01 X-46.85821 Y15.52052
G01 X-46.67536 Y15.52052
G01 X-46.27826 Y15.52052
G01 X-46.04709 Y15.52052
G01 X-45.22522 Y15.52052
G01 X-45.22479 Y15.52052
G01 X-44.89116 Y15.52052
G01 X-44.89065 Y15.52052
G01 X-44.59599 Y15.52052
G01 X-44.52477 Y15.03950
G01 X-44.51049 Y14.90361
G01 X-44.47976 Y14.31847
G01 X-44.47976 Y14.18260
G01 X-44.51049 Y13.59746
G01 X-44.52477 Y13.46157
G01 X-44.62030 Y12.86018
G01 X-44.64918 Y12.72426
G01 X-44.81994 Y12.08881
G01 X-44.86411 Y11.95292
G01 X-45.12939 Y11.26397
G01 X-45.18987 Y11.12810
G01 X-45.37422 Y10.74260
G01 X-45.58405 Y10.35708
G01 X-45.66251 Y10.22122
G01 X-45.99025 Y9.69399
G01 X-45.90376 Y9.63821
G01 X-45.64834 Y9.47235
G01 X-45.12505 Y9.11480
G01 X-44.65626 Y8.75724
G01 X-44.45139 Y8.59135
G01 X-44.14984 Y8.33496
G01 X-43.87841 Y8.07858
G01 X-43.71253 Y7.91271
G01 X-43.36528 Y7.52897
G01 X-43.23097 Y7.36311
G01 X-43.01400 Y7.06573
G01 X-42.90628 Y6.89984
G01 X-42.76820 Y6.66156
G01 X-42.68367 Y6.49567
G01 X-42.59561 Y6.29852
G01 X-42.53193 Y6.13266
G01 X-42.52548 Y6.11556
G01 X-42.52548 Y5.93550
G01 X-42.52548 Y5.74394
G01 X-42.52546 Y5.60634
G01 X-42.52546 Y5.43190
G01 X-42.52546 Y5.32341
G01 X-42.52546 Y5.15661
G01 X-42.52548 Y5.10650
G01 X-42.52548 Y4.50350
G01 X-42.52546 Y4.45341
G01 X-42.52546 Y4.28661
G01 X-42.52546 Y4.17813
G01 X-42.52546 Y4.00368
G01 X-42.52548 Y3.86609
G01 X-42.52548 Y3.73530
G01 X-42.47285 Y3.70493
G01 X-42.34110 Y3.63756
G01 X-42.17524 Y3.56373
G01 X-42.07019 Y3.52326
G01 X-41.90427 Y3.46937
G01 X-41.81710 Y3.44595
G01 X-41.65124 Y3.41069
G01 X-41.57512 Y3.39860
G01 X-41.40923 Y3.38118
G01 X-41.33841 Y3.37744
G01 X-41.17250 Y3.37744
G01 X-41.10169 Y3.38118
G01 X-40.93580 Y3.39860
G01 X-40.85970 Y3.41069
G01 X-40.69384 Y3.44595
G01 X-40.60666 Y3.46937
G01 X-40.44075 Y3.52326
G01 X-40.33570 Y3.56373
G01 X-40.16984 Y3.63756
G01 X-40.12490 Y3.65860
G01 X-40.10966 Y3.71001
G01 X-40.10087 Y3.74117
G01 X-40.05642 Y3.90706
G01 X-40.03260 Y4.01889
G01 X-40.00631 Y4.18481
G01 X-39.99546 Y4.28773
G01 X-39.98678 Y4.45362
G01 X-39.98548 Y4.50350
G01 X-39.98548 Y5.10650
G01 X-39.98678 Y5.15641
G01 X-39.99546 Y5.32230
G01 X-40.00631 Y5.42522
G01 X-40.03260 Y5.59113
G01 X-40.05642 Y5.70297
G01 X-40.10087 Y5.86885
G01 X-40.10966 Y5.89999
G01 X-40.13928 Y5.99997
G01 X-40.18160 Y6.18506
G01 X-40.21680 Y6.39499
G01 X-40.23547 Y6.52755
G01 X-40.11619 Y6.79227
G01 X-39.95533 Y7.05701
G01 X-39.75295 Y7.32176
G01 X-39.50898 Y7.58650
G01 X-38.91756 Y8.17792
G01 X-38.90550 Y8.20708
G01 X-38.90550 Y17.51122
G01 X-38.95409 Y17.76990
G01 X-38.97063 Y17.87442
G01 X-39.01904 Y18.33360
G01 X-39.02452 Y18.43812
G01 X-39.02452 Y18.89286
G01 X-39.01904 Y18.99740
G01 X-38.97868 Y19.40375
G01 X-38.92635 Y19.44226
G01 X-38.82183 Y19.51820
G01 X-38.41083 Y19.78617
G01 X-38.30629 Y19.84652
G01 X-37.95465 Y20.02631
G01 X-37.85013 Y20.07284
G01 X-37.53956 Y20.19242
G01 X-37.43504 Y20.22638
G01 X-37.15168 Y20.30256
G01 X-37.04716 Y20.32475
G01 X-36.78071 Y20.36710
G01 X-36.67617 Y20.37809
G01 X-36.41777 Y20.39166
G01 X-36.31328 Y20.39166
G01 X-36.05488 Y20.37809
G01 X-35.95034 Y20.36710
G01 X-35.68387 Y20.32475
G01 X-35.57934 Y20.30256
G01 X-35.29598 Y20.22638
G01 X-35.19146 Y20.19242
G01 X-34.88090 Y20.07284
G01 X-34.77637 Y20.02631
G01 X-34.42474 Y19.84652
G01 X-34.32019 Y19.78617
G01 X-33.90919 Y19.51820
G01 X-33.80470 Y19.44226
G01 X-33.30985 Y19.03974
G01 X-33.20531 Y18.94566
G01 X-32.73505 Y18.48488
G01 X-32.74432 Y18.38613
G01 X-32.74910 Y18.33733
G01 X-32.75883 Y18.23319
G01 X-32.77607 Y18.03053
G01 X-32.83175 Y17.57287
G01 X-32.84829 Y17.46835
G01 X-32.87303 Y17.32275
G01 X-32.87303 Y9.21660
G01 X-31.31745 Y7.66100
G01 X-31.07349 Y7.39628
G01 X-30.87107 Y7.13154
G01 X-30.71019 Y6.86682
G01 X-30.59086 Y6.60207
G01 X-30.60961 Y6.46900
G01 X-30.64481 Y6.25917
G01 X-30.68713 Y6.07406
G01 X-30.71674 Y5.97409
G01 X-30.72553 Y5.94292
G01 X-30.76998 Y5.77706
G01 X-30.79383 Y5.66514
G01 X-30.82010 Y5.49926
G01 X-30.83092 Y5.39646
G01 X-30.83963 Y5.23058
G01 X-30.84092 Y5.18059
G01 X-30.84092 Y4.57759
G01 X-30.83963 Y4.52763
G01 X-30.83092 Y4.36174
G01 X-30.82010 Y4.25892
G01 X-30.79383 Y4.09304
G01 X-30.76998 Y3.98115
G01 X-30.72553 Y3.81526
G01 X-30.71674 Y3.78410
G01 X-30.68713 Y3.68407
G01 X-30.68603 Y3.68039
G01 X-30.52360 Y3.60808
G01 X-30.40973 Y3.56423
G01 X-30.24387 Y3.51034
G01 X-30.14829 Y3.48466
G01 X-29.98240 Y3.44940
G01 X-29.89838 Y3.43607
G01 X-29.73249 Y3.41862
G01 X-29.65385 Y3.41448
G01 X-29.48797 Y3.41448
G01 X-29.40935 Y3.41862
G01 X-29.24347 Y3.43607
G01 X-29.15942 Y3.44940
G01 X-28.99356 Y3.48466
G01 X-28.89805 Y3.51034
G01 X-28.73214 Y3.56423
G01 X-28.61820 Y3.60810
G01 X-28.45231 Y3.68196
G01 X-28.31088 Y3.75428
G01 X-28.30092 Y3.76002
G01 X-28.31088 Y3.75428
G01 X-28.45231 Y3.68196
G01 X-28.61820 Y3.60810
G01 X-28.73214 Y3.56423
G01 X-28.89805 Y3.51034
G01 X-28.99356 Y3.48466
G01 X-29.15942 Y3.44940
G01 X-29.24347 Y3.43607
G01 X-29.40935 Y3.41862
G01 X-29.48797 Y3.41448
G01 X-29.65385 Y3.41448
G01 X-29.73249 Y3.41862
G01 X-29.89838 Y3.43607
G01 X-29.98240 Y3.44940
G01 X-30.14829 Y3.48466
G01 X-30.24387 Y3.51034
G01 X-30.40973 Y3.56423
G01 X-30.52360 Y3.60808
G01 X-30.68603 Y3.68039
G01 X-30.84390 Y3.56312
G01 X-31.00173 Y3.47935
G01 X-31.15959 Y3.42908
G01 X-31.31743 Y3.41232
G01 X-32.90445 Y3.41232
G01 X-33.09032 Y3.43556
G01 X-33.27623 Y3.50526
G01 X-33.46213 Y3.62146
G01 X-33.64800 Y3.78410
G01 X-33.68984 Y3.82593
G01 X-37.15600 Y3.80650
G01 X-37.25247 Y3.71003
G01 X-37.41985 Y3.56357
G01 X-37.58724 Y3.45895
G01 X-37.75460 Y3.39619
G01 X-37.92199 Y3.37526
G01 X-39.50898 Y3.37526
G01 X-39.66295 Y3.39299
G01 X-39.81693 Y3.44610
G01 X-39.97090 Y3.53464
G01 X-40.12490 Y3.65860
G04 P0 ( dwell for no time -- G64 should not smooth over this point )
G00 Z5.00000 ( retract )

G00 X-61.51846 Y2.00053 ( rapid move to begin. )
G01 F100.00000
( Mill infeed pass 1/1 )
G01 Z-0.22000
G04 P0 ( dwell for no time -- G64 should not smooth over this point )
G01 F200.00000
G01 X-61.51846 Y2.00053
G01 X-60.87439 Y3.06167
G01 X-60.75775 Y3.25189
G01 X-60.38448 Y3.85466
G01 X-60.34561 Y3.91765
G01 X-59.68511 Y4.99268
G01 X-59.59126 Y5.14353
G01 X-59.45766 Y5.35549
G01 X-59.42474 Y5.40797
G01 X-59.07666 Y5.96553
G01 X-58.86111 Y6.32428
G01 X-58.78263 Y6.46016
G01 X-58.51166 Y6.95795
G01 X-58.27358 Y7.45574
G01 X-58.21311 Y7.59158
G01 X-58.02746 Y8.03875
G01 X-57.86873 Y8.48592
G01 X-57.82456 Y8.62183
G01 X-57.70201 Y9.03476
G01 X-57.60262 Y9.44769
G01 X-57.57374 Y9.58358
G01 X-57.50092 Y9.97575
G01 X-57.44915 Y10.36796
G01 X-57.43488 Y10.50385
G01 X-57.40478 Y10.88571
G01 X-57.39477 Y11.26757
G01 X-57.39477 Y11.40349
G01 X-57.39751 Y11.60349
G01 X-57.92167 Y12.06379
G01 X-58.05756 Y12.17382
G01 X-58.65187 Y12.60745
G01 X-58.78776 Y12.69566
G01 X-59.28862 Y12.98591
G01 X-59.42451 Y13.05512
G01 X-59.86014 Y13.24974
G01 X-59.99603 Y13.30191
G01 X-60.38808 Y13.42970
G01 X-60.52400 Y13.46609
G01 X-60.88671 Y13.54341
G01 X-61.02260 Y13.56493
G01 X-61.17515 Y13.58553
G01 X-61.37073 Y13.58553
G01 X-61.50736 Y13.58553
G01 X-61.67548 Y13.58553
G01 X-62.87545 Y13.58553
G01 X-63.04355 Y13.58553
G01 X-63.18020 Y13.58553
G01 X-63.53504 Y13.58553
G01 X-63.67792 Y13.58553
G01 X-64.09610 Y13.58553
G01 X-64.25302 Y13.58553
G01 X-64.27108 Y13.58553
G01 X-66.87982 Y13.58553
G01 X-66.89793 Y13.58553
G01 X-67.05485 Y13.58553
G01 X-67.47303 Y13.58553
G01 X-67.61591 Y13.58553
G01 X-67.97075 Y13.58553
G01 X-68.10740 Y13.58553
G01 X-68.27549 Y13.58553
G01 X-68.50915 Y13.58553
G01 X-69.47549 Y13.98578
G01 X-69.59591 Y14.03937
G01 X-69.72601 Y14.10142
G01 X-69.93130 Y14.21265
G01 X-70.02952 Y14.27285
G01 X-70.04687 Y14.29673
G01 X-70.17336 Y14.49073
G01 X-70.25182 Y14.62665
G01 X-70.33180 Y14.78308
G01 X-70.39228 Y14.91895
G01 X-70.44237 Y15.04900
G01 X-70.48651 Y15.18489
G01 X-70.51679 Y15.29751
G01 X-70.54567 Y15.43340
G01 X-70.56185 Y15.53518
G01 X-70.57612 Y15.67107
G01 X-70.58120 Y15.76756
G01 X-70.58120 Y15.90348
G01 X-70.57612 Y15.99997
G01 X-70.56185 Y16.13586
G01 X-70.54567 Y16.23764
G01 X-70.51679 Y16.37353
G01 X-70.48654 Y16.48610
G01 X-70.44239 Y16.62199
G01 X-70.39225 Y16.75219
G01 X-70.33175 Y16.88806
G01 X-70.25182 Y17.04440
G01 X-70.17336 Y17.18031
G01 X-70.04699 Y17.37414
G01 X-69.94826 Y17.51003
G01 X-69.74590 Y17.75882
G01 X-69.62355 Y17.89471
G01 X-69.47549 Y18.05054
G01 X-68.67417 Y18.85183
G01 X-68.63945 Y18.86624
G01 X-68.27549 Y18.77111
G01 X-68.04080 Y18.71955
G01 X-67.90702 Y18.69227
G01 X-67.44649 Y18.60568
G01 X-67.31769 Y18.58338
G01 X-67.31118 Y18.58234
G01 X-66.82752 Y18.47922
G01 X-66.77781 Y18.46591
G01 X-65.81771 Y18.46591
G01 X-65.40997 Y18.48336
G01 X-65.00225 Y18.53576
G01 X-65.01987 Y19.26453
G01 X-65.03641 Y19.61295
G01 X-65.07073 Y20.08252
G01 X-65.09656 Y20.31371
G01 X-65.13052 Y20.53375
G01 X-65.16775 Y20.71122
G01 X-65.20428 Y20.84627
G01 X-65.20507 Y20.84916
G01 X-65.24705 Y21.00596
G01 X-65.27192 Y21.12254
G01 X-65.29676 Y21.27934
G01 X-65.30811 Y21.38711
G01 X-65.31632 Y21.54390
G01 X-65.31632 Y21.64868
G01 X-65.30811 Y21.80547
G01 X-65.29676 Y21.91325
G01 X-65.27192 Y22.07004
G01 X-65.24705 Y22.18663
G01 X-65.20507 Y22.34342
G01 X-65.20428 Y22.34626
G01 X-65.16775 Y22.48137
G01 X-65.13052 Y22.65884
G01 X-65.09656 Y22.87888
G01 X-65.07624 Y23.04390
G01 X-65.20154 Y23.30938
G01 X-65.36686 Y23.57484
G01 X-65.57225 Y23.84032
G01 X-65.81771 Y24.10577
G01 X-66.56132 Y24.84941
G01 X-66.56132 Y25.39899
G01 X-66.43821 Y25.79431
G01 X-66.35028 Y26.18967
G01 X-66.29752 Y26.58499
G01 X-66.27994 Y26.98032
G01 X-66.27994 Y27.65365
G01 X-66.30377 Y28.11377
G01 X-66.37524 Y28.57391
G01 X-66.49437 Y29.03406
G01 X-66.66115 Y29.49418
G01 X-66.94004 Y30.16753
G01 X-67.20709 Y30.73365
G01 X-67.53930 Y31.29976
G01 X-68.74730 Y31.34302
G01 X-68.97783 Y31.34716
G01 X-69.42060 Y31.34716
G01 X-69.65113 Y31.35130
G01 X-72.00046 Y31.43545
G01 X-69.65113 Y31.35130
G01 X-69.42060 Y31.34716
G01 X-68.97783 Y31.34716
G01 X-68.74730 Y31.34302
G01 X-67.53930 Y31.29976
G01 X-67.12553 Y31.96103
G01 X-66.95360 Y32.29163
G01 X-66.80501 Y32.62227
G01 X-66.52609 Y33.29560
G01 X-66.36798 Y33.73187
G01 X-66.25503 Y34.16814
G01 X-66.18726 Y34.60441
G01 X-66.16468 Y35.04065
G01 X-66.16468 Y35.06369
G01 X-65.32074 Y37.10110
G01 X-65.27517 Y37.21893
G01 X-65.25803 Y37.26661
G01 X-65.18965 Y37.48926
G01 X-65.17748 Y37.53691
G01 X-65.13458 Y37.74623
G01 X-65.12719 Y37.79391
G01 X-65.10563 Y37.99564
G01 X-65.10283 Y38.04329
G01 X-65.09938 Y38.14283
G01 X-65.07578 Y40.33470
G01 X-64.94609 Y40.58748
G01 X-64.85902 Y40.84023
G01 X-64.87103 Y40.91811
G01 X-64.90827 Y41.09558
G01 X-64.94479 Y41.23066
G01 X-64.94558 Y41.23353
G01 X-64.98757 Y41.39032
G01 X-65.01243 Y41.50691
G01 X-65.03727 Y41.66370
G01 X-65.04863 Y41.77147
G01 X-65.05683 Y41.92827
G01 X-65.05683 Y42.03304
G01 X-65.04863 Y42.18984
G01 X-65.03727 Y42.29761
G01 X-65.01243 Y42.45440
G01 X-64.98757 Y42.57099
G01 X-64.94558 Y42.72778
G01 X-64.94479 Y42.73068
G01 X-64.90827 Y42.86573
G01 X-64.87103 Y43.04320
G01 X-64.83707 Y43.26324
G01 X-64.81124 Y43.49443
G01 X-64.77692 Y43.96400
G01 X-64.76039 Y44.31241
G01 X-64.73750 Y45.25811
G01 X-64.58904 Y45.27584
G01 X-64.43827 Y45.29168
G01 X-64.43189 Y45.29069
G01 X-64.33049 Y45.27507
G01 X-63.86245 Y45.34886
G01 X-63.70957 Y45.37959
G01 X-63.22346 Y45.50342
G01 X-63.08221 Y45.54762
G01 X-62.87545 Y45.61823
G01 X-61.67546 Y46.06382
G01 X-61.52910 Y46.12254
G01 X-61.39842 Y46.17901
G01 X-61.14246 Y46.30570
G01 X-61.02166 Y46.37370
G01 X-60.80045 Y46.51381
G01 X-60.68912 Y46.59283
G01 X-60.68354 Y46.59681
G01 X-60.56464 Y46.83021
G01 X-60.50414 Y46.96608
G01 X-60.42458 Y47.17268
G01 X-60.38041 Y47.30860
G01 X-60.33101 Y47.49249
G01 X-60.30213 Y47.62836
G01 X-60.27510 Y47.79841
G01 X-60.26083 Y47.93430
G01 X-60.25224 Y48.09752
G01 X-60.25224 Y48.23344
G01 X-60.26083 Y48.39666
G01 X-60.27510 Y48.53255
G01 X-60.30213 Y48.70260
G01 X-60.33101 Y48.83846
G01 X-60.38046 Y49.02246
G01 X-60.42461 Y49.15835
G01 X-60.50409 Y49.36473
G01 X-60.56456 Y49.50059
G01 X-60.68747 Y49.74100
G01 X-60.76596 Y49.87692
G01 X-60.95420 Y50.16564
G01 X-61.05293 Y50.30153
G01 X-61.13886 Y50.41547
G01 X-61.37073 Y50.41547
G01 X-61.50736 Y50.41547
G01 X-61.67548 Y50.41547
G01 X-62.87545 Y50.41547
G01 X-63.04355 Y50.41547
G01 X-63.18020 Y50.41547
G01 X-63.53504 Y50.41547
G01 X-63.67792 Y50.41547
G01 X-64.09610 Y50.41547
G01 X-64.25302 Y50.41547
G01 X-64.27108 Y50.41547
G01 X-66.87982 Y50.41547
G01 X-66.89793 Y50.41547
G01 X-67.05485 Y50.41547
G01 X-67.47303 Y50.41547
G01 X-67.61591 Y50.41547
G01 X-67.97075 Y50.41547
G01 X-68.10740 Y50.41547
G01 X-68.27549 Y50.41547
G01 X-69.47549 Y50.41547
G01 X-69.64359 Y50.41547
G01 X-69.78022 Y50.41547
G01 X-70.13503 Y50.41547
G01 X-70.27790 Y50.41547
G01 X-70.69589 Y50.41547
G01 X-70.85281 Y50.41547
G01 X-71.41036 Y50.41547
G01 X-71.59322 Y50.41547
G01 X-72.00046 Y50.41547

G04 P0 ( dwell for no time -- G64 should not smooth over this point )
G00 Z10.000000 ( retract )

M5 ( Spindle off. )
G04 P1.000000
M9 ( Coolant off. )
M2 ( Program end. )

