( pcb2gcode 2.4.0 )
( Software-independent Gcode )

( This file uses only one drill bit. Forced by 'onedrill' option )

G94       (Millimeters per minute feed rate.)
G21       (Units == Millimeters.)
G90       (Absolute coordinates.)
G00 S10000     (RPM spindle speed.)

G00 Z10.00000 (Retract)
T1
M5      (Spindle stop.)
G04 P1.00000
(MSG, Change tool bit to drill size 0.5mm)
M6      (Tool change.)
M0      (Temporary machine stop.)
M3      (Spindle on clockwise.)
G0 Z5.00000
G04 P1.00000

G1 F170.00000
G0 X-5.12550 Y11.33550
G1 Z-2.50000
G1 Z5.00000
G0 X-5.12550 Y15.83550
G1 Z-2.50000
G1 Z5.00000
G0 X-11.72550 Y15.83550
G1 Z-2.50000
G1 Z5.00000
G0 X-11.72550 Y11.33550
G1 Z-2.50000
G1 Z5.00000
G0 X-24.49090 Y4.87907
G1 Z-2.50000
G1 Z5.00000
G0 X-27.03090 Y4.87907
G1 Z-2.50000
G1 Z5.00000
G0 X-29.57090 Y4.87907
G1 Z-2.50000
G1 Z5.00000
G0 X-32.11090 Y4.87907
G1 Z-2.50000
G1 Z5.00000
G0 X-38.71549 Y4.80499
G1 Z-2.50000
G1 Z5.00000
G0 X-41.25549 Y4.80499
G1 Z-2.50000
G1 Z5.00000
G0 X-43.79549 Y4.80499
G1 Z-2.50000
G1 Z5.00000
G0 X-47.20050 Y10.60050
G1 Z-2.50000
G1 Z5.00000
G0 X-48.51050 Y14.25050
G1 Z-2.50000
G1 Z5.00000
G0 X-48.51050 Y16.79050
G1 Z-2.50000
G1 Z5.00000
G0 X-48.51050 Y19.33050
G1 Z-2.50000
G1 Z5.00000
G0 X-48.51050 Y21.87050
G1 Z-2.50000
G1 Z5.00000
G0 X-48.51050 Y24.41050
G1 Z-2.50000
G1 Z5.00000
G0 X-52.24050 Y28.19050
G1 Z-2.50000
G1 Z5.00000
G0 X-61.69449 Y27.31695
G1 Z-2.50000
G1 Z5.00000
G0 X-64.06772 Y21.59626
G1 Z-2.50000
G1 Z5.00000
G0 X-62.27550 Y15.83550
G1 Z-2.50000
G1 Z5.00000
G0 X-62.27550 Y11.33550
G1 Z-2.50000
G1 Z5.00000
G0 X-68.87550 Y11.33550
G1 Z-2.50000
G1 Z5.00000
G0 X-68.87550 Y15.83550
G1 Z-2.50000
G1 Z5.00000
G0 X-66.56772 Y21.59626
G1 Z-2.50000
G1 Z5.00000
G0 X-69.31449 Y27.31695
G1 Z-2.50000
G1 Z5.00000
G0 X-69.08396 Y35.37734
G1 Z-2.50000
G1 Z5.00000
G0 X-63.80824 Y41.98068
G1 Z-2.50000
G1 Z5.00000
G0 X-62.27550 Y48.16550
G1 Z-2.50000
G1 Z5.00000
G0 X-62.27550 Y52.66550
G1 Z-2.50000
G1 Z5.00000
G0 X-68.87550 Y52.66550
G1 Z-2.50000
G1 Z5.00000
G0 X-68.87550 Y48.16550
G1 Z-2.50000
G1 Z5.00000
G0 X-66.30824 Y41.98068
G1 Z-2.50000
G1 Z5.00000
G0 X-61.46396 Y35.37734
G1 Z-2.50000
G1 Z5.00000
G0 X-54.77772 Y37.18237
G1 Z-2.50000
G1 Z5.00000
G0 X-54.77772 Y39.68237
G1 Z-2.50000
G1 Z5.00000
G0 X-47.20050 Y53.40050
G1 Z-2.50000
G1 Z5.00000
G0 X-48.51050 Y49.81050
G1 Z-2.50000
G1 Z5.00000
G0 X-48.51050 Y47.27050
G1 Z-2.50000
G1 Z5.00000
G0 X-48.51050 Y44.73050
G1 Z-2.50000
G1 Z5.00000
G0 X-48.51050 Y42.19050
G1 Z-2.50000
G1 Z5.00000
G0 X-48.51050 Y39.65050
G1 Z-2.50000
G1 Z5.00000
G0 X-48.51050 Y37.11050
G1 Z-2.50000
G1 Z5.00000
G0 X-48.51050 Y34.57050
G1 Z-2.50000
G1 Z5.00000
G0 X-48.51050 Y32.03050
G1 Z-2.50000
G1 Z5.00000
G0 X-48.51050 Y29.49050
G1 Z-2.50000
G1 Z5.00000
G0 X-48.51050 Y26.95050
G1 Z-2.50000
G1 Z5.00000
G0 X-42.08050 Y28.19050
G1 Z-2.50000
G1 Z5.00000
G0 X-36.36550 Y28.19050
G1 Z-2.50000
G1 Z5.00000
G0 X-36.36550 Y18.66550
G1 Z-2.50000
G1 Z5.00000
G0 X-26.80050 Y10.60050
G1 Z-2.50000
G1 Z5.00000
G0 X-25.65050 Y14.25050
G1 Z-2.50000
G1 Z5.00000
G0 X-25.65050 Y16.79050
G1 Z-2.50000
G1 Z5.00000
G0 X-25.65050 Y19.33050
G1 Z-2.50000
G1 Z5.00000
G0 X-25.65050 Y21.87050
G1 Z-2.50000
G1 Z5.00000
G0 X-25.65050 Y24.41050
G1 Z-2.50000
G1 Z5.00000
G0 X-25.65050 Y26.95050
G1 Z-2.50000
G1 Z5.00000
G0 X-25.65050 Y29.49050
G1 Z-2.50000
G1 Z5.00000
G0 X-25.65050 Y32.03050
G1 Z-2.50000
G1 Z5.00000
G0 X-25.65050 Y34.57050
G1 Z-2.50000
G1 Z5.00000
G0 X-25.65050 Y37.11050
G1 Z-2.50000
G1 Z5.00000
G0 X-25.65050 Y39.65050
G1 Z-2.50000
G1 Z5.00000
G0 X-25.65050 Y42.19050
G1 Z-2.50000
G1 Z5.00000
G0 X-25.65050 Y44.73050
G1 Z-2.50000
G1 Z5.00000
G0 X-25.65050 Y47.27050
G1 Z-2.50000
G1 Z5.00000
G0 X-25.65050 Y49.81050
G1 Z-2.50000
G1 Z5.00000
G0 X-26.80050 Y53.40050
G1 Z-2.50000
G1 Z5.00000
G0 X-11.72550 Y52.66550
G1 Z-2.50000
G1 Z5.00000
G0 X-11.72550 Y48.16550
G1 Z-2.50000
G1 Z5.00000
G0 X-5.12550 Y52.66550
G1 Z-2.50000
G1 Z5.00000
G0 X-5.12550 Y48.16550
G1 Z-2.50000
G1 Z5.00000
G0 X-9.67550 Y41.52550
G1 Z-2.50000
G1 Z5.00000
G0 X-7.17550 Y41.52550
G1 Z-2.50000
G1 Z5.00000
G0 X-12.23550 Y35.17550
G1 Z-2.50000
G1 Z5.00000
G0 X-4.61550 Y35.17550
G1 Z-2.50000
G1 Z5.00000
G0 X-4.61550 Y27.55550
G1 Z-2.50000
G1 Z5.00000
G0 X-7.17550 Y21.84050
G1 Z-2.50000
G1 Z5.00000
G0 X-9.67550 Y21.84050
G1 Z-2.50000
G1 Z5.00000
G0 X-12.23550 Y27.55550
G1 Z-2.50000
G1 Z5.00000

G00 Z10.000 ( All done -- retract )

M5      (Spindle off.)
G04 P1.000000
M9      (Coolant off.)
M2      (Program end.)

