( pcb2gcode 2.4.0 )
( Software-independent Gcode )

G94 ( Millimeters per minute feed rate. )
G21 ( Units == Millimeters. )

G90 ( Absolute coordinates. )
G00 S10000 ( RPM spindle speed. )
G01 F200.00000 ( Feedrate. )


G00 Z10.00000 (Retract to tool change height)
T0
M5      (Spindle stop.)
G04 P1.00000 (Wait for spindle to stop)
(MSG, Change tool bit to cutter diameter 2.00000mm)
M6      (Tool change.)
M0      (Temporary machine stop.)
M3 ( Spindle on clockwise. )
G04 P1.00000 (Wait for spindle to get up to speed)
G04 P0 ( dwell for no time -- G64 should not smooth over this point )
G00 Z5.00000 ( retract )

G00 X-1.00052 Y2.00051 ( rapid move to begin. )
G01 Z-0.28571 F30.00000 ( plunge. )
G04 P0 ( dwell for no time -- G64 should not smooth over this point )
G01 F200.00000
G01 X-1.00052 Y3.15250
G01 X-1.00052 Y55.55660
G01 X-1.00052 Y56.12049
G01 X-1.01975 Y56.31556
G01 X-1.07665 Y56.50317
G01 X-1.16905 Y56.67604
G01 X-1.29343 Y56.82758
G01 X-1.44497 Y56.95196
G01 X-1.61784 Y57.04437
G01 X-1.80545 Y57.10126
G01 X-2.00052 Y57.12049
G01 X-2.36837 Y57.12049
G01 X-70.84849 Y57.12049
G01 X-72.00048 Y57.12049
G01 X-72.19555 Y57.10126
G01 X-72.38316 Y57.04437
G01 X-72.55603 Y56.95196
G01 X-72.70757 Y56.82758
G01 X-72.83195 Y56.67604
G01 X-72.92435 Y56.50317
G01 X-72.97422 Y56.33875
G01 X-72.98125 Y56.31556
G01 X-73.00048 Y56.12049
G01 X-73.00048 Y3.15250
G01 X-73.00048 Y2.00051
G01 X-72.98125 Y1.80544
G01 X-72.92435 Y1.61783
G01 X-72.83195 Y1.44496
G01 X-72.70757 Y1.29342
G01 X-72.55603 Y1.16904
G01 X-72.38316 Y1.07663
G01 X-72.21874 Y1.02677
G01 X-72.19555 Y1.01974
G01 X-72.00048 Y1.00051
G01 X-38.25050 Y1.00051
G01 X-35.75050 Y1.00051
G01 X-2.00052 Y1.00051
G01 X-1.80545 Y1.01974
G01 X-1.78226 Y1.02677
G01 X-1.61784 Y1.07663
G01 X-1.44497 Y1.16904
G01 X-1.29343 Y1.29342
G01 X-1.16905 Y1.44496
G01 X-1.07665 Y1.61783
G01 X-1.01975 Y1.80544
G01 X-1.00052 Y2.00051
G01 Z-0.57143 F30.00000 ( plunge. )
G04 P0 ( dwell for no time -- G64 should not smooth over this point )
G01 F200.00000
G01 X-1.00052 Y3.15250
G01 X-1.00052 Y55.55660
G01 X-1.00052 Y56.12049
G01 X-1.01975 Y56.31556
G01 X-1.07665 Y56.50317
G01 X-1.16905 Y56.67604
G01 X-1.29343 Y56.82758
G01 X-1.44497 Y56.95196
G01 X-1.61784 Y57.04437
G01 X-1.80545 Y57.10126
G01 X-2.00052 Y57.12049
G01 X-2.36837 Y57.12049
G01 X-70.84849 Y57.12049
G01 X-72.00048 Y57.12049
G01 X-72.19555 Y57.10126
G01 X-72.38316 Y57.04437
G01 X-72.55603 Y56.95196
G01 X-72.70757 Y56.82758
G01 X-72.83195 Y56.67604
G01 X-72.92435 Y56.50317
G01 X-72.97422 Y56.33875
G01 X-72.98125 Y56.31556
G01 X-73.00048 Y56.12049
G01 X-73.00048 Y3.15250
G01 X-73.00048 Y2.00051
G01 X-72.98125 Y1.80544
G01 X-72.92435 Y1.61783
G01 X-72.83195 Y1.44496
G01 X-72.70757 Y1.29342
G01 X-72.55603 Y1.16904
G01 X-72.38316 Y1.07663
G01 X-72.21874 Y1.02677
G01 X-72.19555 Y1.01974
G01 X-72.00048 Y1.00051
G01 X-38.25050 Y1.00051
G01 X-35.75050 Y1.00051
G01 X-2.00052 Y1.00051
G01 X-1.80545 Y1.01974
G01 X-1.78226 Y1.02677
G01 X-1.61784 Y1.07663
G01 X-1.44497 Y1.16904
G01 X-1.29343 Y1.29342
G01 X-1.16905 Y1.44496
G01 X-1.07665 Y1.61783
G01 X-1.01975 Y1.80544
G01 X-1.00052 Y2.00051
G01 Z-0.85714 F30.00000 ( plunge. )
G04 P0 ( dwell for no time -- G64 should not smooth over this point )
G01 F200.00000
G00 Z-0.60000
G01 X-1.00052 Y3.15250
G01 Z-0.85714 F30.00000
G01 F200.00000
G01 X-1.00052 Y55.55660
G00 Z-0.60000
G01 X-1.00052 Y56.12049
G01 X-1.01975 Y56.31556
G01 X-1.07665 Y56.50317
G01 X-1.16905 Y56.67604
G01 X-1.29343 Y56.82758
G01 X-1.44497 Y56.95196
G01 X-1.61784 Y57.04437
G01 X-1.80545 Y57.10126
G01 X-2.00052 Y57.12049
G01 X-2.36837 Y57.12049
G01 Z-0.85714 F30.00000
G01 F200.00000
G01 X-70.84849 Y57.12049
G00 Z-0.60000
G01 X-72.00048 Y57.12049
G01 X-72.19555 Y57.10126
G01 X-72.38316 Y57.04437
G01 X-72.55603 Y56.95196
G01 X-72.70757 Y56.82758
G01 X-72.83195 Y56.67604
G01 X-72.92435 Y56.50317
G01 X-72.97422 Y56.33875
G01 Z-0.85714 F30.00000
G01 F200.00000
G01 X-72.98125 Y56.31556
G01 X-73.00048 Y56.12049
G01 X-73.00048 Y3.15250
G00 Z-0.60000
G01 X-73.00048 Y2.00051
G01 X-72.98125 Y1.80544
G01 X-72.92435 Y1.61783
G01 X-72.83195 Y1.44496
G01 X-72.70757 Y1.29342
G01 X-72.55603 Y1.16904
G01 X-72.38316 Y1.07663
G01 X-72.21874 Y1.02677
G01 Z-0.85714 F30.00000
G01 F200.00000
G01 X-72.19555 Y1.01974
G01 X-72.00048 Y1.00051
G01 X-38.25050 Y1.00051
G00 Z-0.60000
G01 X-35.75050 Y1.00051
G01 Z-0.85714 F30.00000
G01 F200.00000
G01 X-2.00052 Y1.00051
G01 X-1.80545 Y1.01974
G01 X-1.78226 Y1.02677
G00 Z-0.60000
G01 X-1.61784 Y1.07663
G01 X-1.44497 Y1.16904
G01 X-1.29343 Y1.29342
G01 X-1.16905 Y1.44496
G01 X-1.07665 Y1.61783
G01 X-1.01975 Y1.80544
G01 X-1.00052 Y2.00051
G01 Z-1.14286 F30.00000 ( plunge. )
G04 P0 ( dwell for no time -- G64 should not smooth over this point )
G01 F200.00000
G00 Z-0.60000
G01 X-1.00052 Y3.15250
G01 Z-1.14286 F30.00000
G01 F200.00000
G01 X-1.00052 Y55.55660
G00 Z-0.60000
G01 X-1.00052 Y56.12049
G01 X-1.01975 Y56.31556
G01 X-1.07665 Y56.50317
G01 X-1.16905 Y56.67604
G01 X-1.29343 Y56.82758
G01 X-1.44497 Y56.95196
G01 X-1.61784 Y57.04437
G01 X-1.80545 Y57.10126
G01 X-2.00052 Y57.12049
G01 X-2.36837 Y57.12049
G01 Z-1.14286 F30.00000
G01 F200.00000
G01 X-70.84849 Y57.12049
G00 Z-0.60000
G01 X-72.00048 Y57.12049
G01 X-72.19555 Y57.10126
G01 X-72.38316 Y57.04437
G01 X-72.55603 Y56.95196
G01 X-72.70757 Y56.82758
G01 X-72.83195 Y56.67604
G01 X-72.92435 Y56.50317
G01 X-72.97422 Y56.33875
G01 Z-1.14286 F30.00000
G01 F200.00000
G01 X-72.98125 Y56.31556
G01 X-73.00048 Y56.12049
G01 X-73.00048 Y3.15250
G00 Z-0.60000
G01 X-73.00048 Y2.00051
G01 X-72.98125 Y1.80544
G01 X-72.92435 Y1.61783
G01 X-72.83195 Y1.44496
G01 X-72.70757 Y1.29342
G01 X-72.55603 Y1.16904
G01 X-72.38316 Y1.07663
G01 X-72.21874 Y1.02677
G01 Z-1.14286 F30.00000
G01 F200.00000
G01 X-72.19555 Y1.01974
G01 X-72.00048 Y1.00051
G01 X-38.25050 Y1.00051
G00 Z-0.60000
G01 X-35.75050 Y1.00051
G01 Z-1.14286 F30.00000
G01 F200.00000
G01 X-2.00052 Y1.00051
G01 X-1.80545 Y1.01974
G01 X-1.78226 Y1.02677
G00 Z-0.60000
G01 X-1.61784 Y1.07663
G01 X-1.44497 Y1.16904
G01 X-1.29343 Y1.29342
G01 X-1.16905 Y1.44496
G01 X-1.07665 Y1.61783
G01 X-1.01975 Y1.80544
G01 X-1.00052 Y2.00051
G01 Z-1.42857 F30.00000 ( plunge. )
G04 P0 ( dwell for no time -- G64 should not smooth over this point )
G01 F200.00000
G00 Z-0.60000
G01 X-1.00052 Y3.15250
G01 Z-1.42857 F30.00000
G01 F200.00000
G01 X-1.00052 Y55.55660
G00 Z-0.60000
G01 X-1.00052 Y56.12049
G01 X-1.01975 Y56.31556
G01 X-1.07665 Y56.50317
G01 X-1.16905 Y56.67604
G01 X-1.29343 Y56.82758
G01 X-1.44497 Y56.95196
G01 X-1.61784 Y57.04437
G01 X-1.80545 Y57.10126
G01 X-2.00052 Y57.12049
G01 X-2.36837 Y57.12049
G01 Z-1.42857 F30.00000
G01 F200.00000
G01 X-70.84849 Y57.12049
G00 Z-0.60000
G01 X-72.00048 Y57.12049
G01 X-72.19555 Y57.10126
G01 X-72.38316 Y57.04437
G01 X-72.55603 Y56.95196
G01 X-72.70757 Y56.82758
G01 X-72.83195 Y56.67604
G01 X-72.92435 Y56.50317
G01 X-72.97422 Y56.33875
G01 Z-1.42857 F30.00000
G01 F200.00000
G01 X-72.98125 Y56.31556
G01 X-73.00048 Y56.12049
G01 X-73.00048 Y3.15250
G00 Z-0.60000
G01 X-73.00048 Y2.00051
G01 X-72.98125 Y1.80544
G01 X-72.92435 Y1.61783
G01 X-72.83195 Y1.44496
G01 X-72.70757 Y1.29342
G01 X-72.55603 Y1.16904
G01 X-72.38316 Y1.07663
G01 X-72.21874 Y1.02677
G01 Z-1.42857 F30.00000
G01 F200.00000
G01 X-72.19555 Y1.01974
G01 X-72.00048 Y1.00051
G01 X-38.25050 Y1.00051
G00 Z-0.60000
G01 X-35.75050 Y1.00051
G01 Z-1.42857 F30.00000
G01 F200.00000
G01 X-2.00052 Y1.00051
G01 X-1.80545 Y1.01974
G01 X-1.78226 Y1.02677
G00 Z-0.60000
G01 X-1.61784 Y1.07663
G01 X-1.44497 Y1.16904
G01 X-1.29343 Y1.29342
G01 X-1.16905 Y1.44496
G01 X-1.07665 Y1.61783
G01 X-1.01975 Y1.80544
G01 X-1.00052 Y2.00051
G01 Z-1.71429 F30.00000 ( plunge. )
G04 P0 ( dwell for no time -- G64 should not smooth over this point )
G01 F200.00000
G00 Z-0.60000
G01 X-1.00052 Y3.15250
G01 Z-1.71429 F30.00000
G01 F200.00000
G01 X-1.00052 Y55.55660
G00 Z-0.60000
G01 X-1.00052 Y56.12049
G01 X-1.01975 Y56.31556
G01 X-1.07665 Y56.50317
G01 X-1.16905 Y56.67604
G01 X-1.29343 Y56.82758
G01 X-1.44497 Y56.95196
G01 X-1.61784 Y57.04437
G01 X-1.80545 Y57.10126
G01 X-2.00052 Y57.12049
G01 X-2.36837 Y57.12049
G01 Z-1.71429 F30.00000
G01 F200.00000
G01 X-70.84849 Y57.12049
G00 Z-0.60000
G01 X-72.00048 Y57.12049
G01 X-72.19555 Y57.10126
G01 X-72.38316 Y57.04437
G01 X-72.55603 Y56.95196
G01 X-72.70757 Y56.82758
G01 X-72.83195 Y56.67604
G01 X-72.92435 Y56.50317
G01 X-72.97422 Y56.33875
G01 Z-1.71429 F30.00000
G01 F200.00000
G01 X-72.98125 Y56.31556
G01 X-73.00048 Y56.12049
G01 X-73.00048 Y3.15250
G00 Z-0.60000
G01 X-73.00048 Y2.00051
G01 X-72.98125 Y1.80544
G01 X-72.92435 Y1.61783
G01 X-72.83195 Y1.44496
G01 X-72.70757 Y1.29342
G01 X-72.55603 Y1.16904
G01 X-72.38316 Y1.07663
G01 X-72.21874 Y1.02677
G01 Z-1.71429 F30.00000
G01 F200.00000
G01 X-72.19555 Y1.01974
G01 X-72.00048 Y1.00051
G01 X-38.25050 Y1.00051
G00 Z-0.60000
G01 X-35.75050 Y1.00051
G01 Z-1.71429 F30.00000
G01 F200.00000
G01 X-2.00052 Y1.00051
G01 X-1.80545 Y1.01974
G01 X-1.78226 Y1.02677
G00 Z-0.60000
G01 X-1.61784 Y1.07663
G01 X-1.44497 Y1.16904
G01 X-1.29343 Y1.29342
G01 X-1.16905 Y1.44496
G01 X-1.07665 Y1.61783
G01 X-1.01975 Y1.80544
G01 X-1.00052 Y2.00051
G01 Z-2.00000 F30.00000 ( plunge. )
G04 P0 ( dwell for no time -- G64 should not smooth over this point )
G01 F200.00000
G00 Z-0.60000
G01 X-1.00052 Y3.15250
G01 Z-2.00000 F30.00000
G01 F200.00000
G01 X-1.00052 Y55.55660
G00 Z-0.60000
G01 X-1.00052 Y56.12049
G01 X-1.01975 Y56.31556
G01 X-1.07665 Y56.50317
G01 X-1.16905 Y56.67604
G01 X-1.29343 Y56.82758
G01 X-1.44497 Y56.95196
G01 X-1.61784 Y57.04437
G01 X-1.80545 Y57.10126
G01 X-2.00052 Y57.12049
G01 X-2.36837 Y57.12049
G01 Z-2.00000 F30.00000
G01 F200.00000
G01 X-70.84849 Y57.12049
G00 Z-0.60000
G01 X-72.00048 Y57.12049
G01 X-72.19555 Y57.10126
G01 X-72.38316 Y57.04437
G01 X-72.55603 Y56.95196
G01 X-72.70757 Y56.82758
G01 X-72.83195 Y56.67604
G01 X-72.92435 Y56.50317
G01 X-72.97422 Y56.33875
G01 Z-2.00000 F30.00000
G01 F200.00000
G01 X-72.98125 Y56.31556
G01 X-73.00048 Y56.12049
G01 X-73.00048 Y3.15250
G00 Z-0.60000
G01 X-73.00048 Y2.00051
G01 X-72.98125 Y1.80544
G01 X-72.92435 Y1.61783
G01 X-72.83195 Y1.44496
G01 X-72.70757 Y1.29342
G01 X-72.55603 Y1.16904
G01 X-72.38316 Y1.07663
G01 X-72.21874 Y1.02677
G01 Z-2.00000 F30.00000
G01 F200.00000
G01 X-72.19555 Y1.01974
G01 X-72.00048 Y1.00051
G01 X-38.25050 Y1.00051
G00 Z-0.60000
G01 X-35.75050 Y1.00051
G01 Z-2.00000 F30.00000
G01 F200.00000
G01 X-2.00052 Y1.00051
G01 X-1.80545 Y1.01974
G01 X-1.78226 Y1.02677
G00 Z-0.60000
G01 X-1.61784 Y1.07663
G01 X-1.44497 Y1.16904
G01 X-1.29343 Y1.29342
G01 X-1.16905 Y1.44496
G01 X-1.07665 Y1.61783
G01 X-1.01975 Y1.80544
G01 X-1.00052 Y2.00051

G04 P0 ( dwell for no time -- G64 should not smooth over this point )
G00 Z10.000000 ( retract )

M5 ( Spindle off. )
G04 P1.000000
M9 ( Coolant off. )
M2 ( Program end. )

